; G-code header generated by Python script
G21 ; Set units to millimeters
G90 ; Absolute mode
M82 ; Set extruder to absolute mode
M104 S210 ; Set hotend temperature to 210°C
M109 S210 ; Wait for hotend to reach 210°C
M140 S60 ; Set bed temperature to 60°C
M106 S255 ; Set fan speed to 100%
G28 ; Home all axes
G1 Z0.2 F300 ; Move to safe height
G1 F300 ; Set movement speed to 300 mm/min
M82 ; Set extruder to absolute mode
M83 ; Set extruder to relative mode
G1 X-8.436 Y0.000 Z4.915 F100
G1 X-8.436 Y-3.000 Z4.915 F100
G1 X-8.450 Y0.000 Z4.750 F100
G1 X-8.450 Y0.000 Z4.750 F100
G1 X-8.436 Y-3.000 Z4.915 F100
G1 X-8.450 Y-3.000 Z4.750 F100
G1 X-8.450 Y0.000 Z4.750 F100
G1 X-8.450 Y-3.000 Z4.750 F100
G1 X-8.436 Y0.000 Z4.585 F100
G1 X-8.436 Y0.000 Z4.585 F100
G1 X-8.450 Y-3.000 Z4.750 F100
G1 X-8.436 Y-3.000 Z4.585 F100
G1 X-8.436 Y0.000 Z4.585 F100
G1 X-8.436 Y-3.000 Z4.585 F100
G1 X-8.393 Y0.000 Z4.425 F100
G1 X-8.393 Y0.000 Z4.425 F100
G1 X-8.436 Y-3.000 Z4.585 F100
G1 X-8.393 Y-3.000 Z4.425 F100
G1 X-8.393 Y0.000 Z4.425 F100
G1 X-8.393 Y-3.000 Z4.425 F100
G1 X-8.323 Y0.000 Z4.275 F100
G1 X-8.323 Y0.000 Z4.275 F100
G1 X-8.393 Y-3.000 Z4.425 F100
G1 X-8.323 Y-3.000 Z4.275 F100
G1 X-8.323 Y0.000 Z4.275 F100
G1 X-8.323 Y-3.000 Z4.275 F100
G1 X-8.228 Y0.000 Z4.139 F100
G1 X-8.228 Y0.000 Z4.139 F100
G1 X-8.323 Y-3.000 Z4.275 F100
G1 X-8.228 Y-3.000 Z4.139 F100
G1 X-8.228 Y0.000 Z4.139 F100
G1 X-8.228 Y-3.000 Z4.139 F100
G1 X-8.111 Y0.000 Z4.022 F100
G1 X-8.111 Y0.000 Z4.022 F100
G1 X-8.228 Y-3.000 Z4.139 F100
G1 X-8.111 Y-3.000 Z4.022 F100
G1 X-8.111 Y0.000 Z4.022 F100
G1 X-8.111 Y-3.000 Z4.022 F100
G1 X-7.975 Y0.000 Z3.927 F100
G1 X-7.975 Y0.000 Z3.927 F100
G1 X-8.111 Y-3.000 Z4.022 F100
G1 X-7.975 Y-3.000 Z3.927 F100
G1 X-7.975 Y0.000 Z3.927 F100
G1 X-7.975 Y-3.000 Z3.927 F100
G1 X-7.825 Y0.000 Z3.857 F100
G1 X-7.825 Y0.000 Z3.857 F100
G1 X-7.975 Y-3.000 Z3.927 F100
G1 X-7.825 Y-3.000 Z3.857 F100
G1 X-7.825 Y0.000 Z3.857 F100
G1 X-7.825 Y-3.000 Z3.857 F100
G1 X-7.665 Y0.000 Z3.814 F100
G1 X-7.665 Y0.000 Z3.814 F100
G1 X-7.825 Y-3.000 Z3.857 F100
G1 X-7.665 Y-3.000 Z3.814 F100
G1 X-7.665 Y0.000 Z3.814 F100
G1 X-7.665 Y-3.000 Z3.814 F100
G1 X-7.500 Y0.000 Z3.800 F100
G1 X-7.500 Y0.000 Z3.800 F100
G1 X-7.665 Y-3.000 Z3.814 F100
G1 X-7.500 Y-3.000 Z3.800 F100
G1 X-7.500 Y0.000 Z3.800 F100
G1 X-7.500 Y-3.000 Z3.800 F100
G1 X-7.335 Y0.000 Z3.814 F100
G1 X-7.335 Y0.000 Z3.814 F100
G1 X-7.500 Y-3.000 Z3.800 F100
G1 X-7.335 Y-3.000 Z3.814 F100
G1 X-7.335 Y0.000 Z3.814 F100
G1 X-7.335 Y-3.000 Z3.814 F100
G1 X-7.175 Y0.000 Z3.857 F100
G1 X-7.175 Y0.000 Z3.857 F100
G1 X-7.335 Y-3.000 Z3.814 F100
G1 X-7.175 Y-3.000 Z3.857 F100
G1 X-7.175 Y0.000 Z3.857 F100
G1 X-7.175 Y-3.000 Z3.857 F100
G1 X-7.025 Y0.000 Z3.927 F100
G1 X-7.025 Y0.000 Z3.927 F100
G1 X-7.175 Y-3.000 Z3.857 F100
G1 X-7.025 Y-3.000 Z3.927 F100
G1 X-7.025 Y0.000 Z3.927 F100
G1 X-7.025 Y-3.000 Z3.927 F100
G1 X-6.889 Y0.000 Z4.022 F100
G1 X-6.889 Y0.000 Z4.022 F100
G1 X-7.025 Y-3.000 Z3.927 F100
G1 X-6.889 Y-3.000 Z4.022 F100
G1 X-6.889 Y0.000 Z4.022 F100
G1 X-6.889 Y-3.000 Z4.022 F100
G1 X-6.772 Y0.000 Z4.139 F100
G1 X-6.772 Y0.000 Z4.139 F100
G1 X-6.889 Y-3.000 Z4.022 F100
G1 X-6.772 Y-3.000 Z4.139 F100
G1 X-6.772 Y0.000 Z4.139 F100
G1 X-6.772 Y-3.000 Z4.139 F100
G1 X-6.677 Y0.000 Z4.275 F100
G1 X-6.677 Y0.000 Z4.275 F100
G1 X-6.772 Y-3.000 Z4.139 F100
G1 X-6.677 Y-3.000 Z4.275 F100
G1 X-6.677 Y0.000 Z4.275 F100
G1 X-6.677 Y-3.000 Z4.275 F100
G1 X-6.607 Y0.000 Z4.425 F100
G1 X-6.607 Y0.000 Z4.425 F100
G1 X-6.677 Y-3.000 Z4.275 F100
G1 X-6.607 Y-3.000 Z4.425 F100
G1 X-6.607 Y0.000 Z4.425 F100
G1 X-6.607 Y-3.000 Z4.425 F100
G1 X-6.564 Y0.000 Z4.585 F100
G1 X-6.564 Y0.000 Z4.585 F100
G1 X-6.607 Y-3.000 Z4.425 F100
G1 X-6.564 Y-3.000 Z4.585 F100
G1 X-6.564 Y0.000 Z4.585 F100
G1 X-6.564 Y-3.000 Z4.585 F100
G1 X-6.550 Y0.000 Z4.750 F100
G1 X-6.550 Y0.000 Z4.750 F100
G1 X-6.564 Y-3.000 Z4.585 F100
G1 X-6.550 Y-3.000 Z4.750 F100
G1 X-6.550 Y0.000 Z4.750 F100
G1 X-6.550 Y-3.000 Z4.750 F100
G1 X-6.564 Y0.000 Z4.915 F100
G1 X-6.564 Y0.000 Z4.915 F100
G1 X-6.550 Y-3.000 Z4.750 F100
G1 X-6.564 Y-3.000 Z4.915 F100
G1 X-6.564 Y0.000 Z4.915 F100
G1 X-6.564 Y-3.000 Z4.915 F100
G1 X-6.607 Y0.000 Z5.075 F100
G1 X-6.607 Y0.000 Z5.075 F100
G1 X-6.564 Y-3.000 Z4.915 F100
G1 X-6.607 Y-3.000 Z5.075 F100
G1 X-6.607 Y0.000 Z5.075 F100
G1 X-6.607 Y-3.000 Z5.075 F100
G1 X-6.677 Y0.000 Z5.225 F100
G1 X-6.677 Y0.000 Z5.225 F100
G1 X-6.607 Y-3.000 Z5.075 F100
G1 X-6.677 Y-3.000 Z5.225 F100
G1 X-6.677 Y0.000 Z5.225 F100
G1 X-6.677 Y-3.000 Z5.225 F100
G1 X-6.772 Y0.000 Z5.361 F100
G1 X-6.772 Y0.000 Z5.361 F100
G1 X-6.677 Y-3.000 Z5.225 F100
G1 X-6.772 Y-3.000 Z5.361 F100
G1 X-6.772 Y0.000 Z5.361 F100
G1 X-6.772 Y-3.000 Z5.361 F100
G1 X-6.889 Y0.000 Z5.478 F100
G1 X-6.889 Y0.000 Z5.478 F100
G1 X-6.772 Y-3.000 Z5.361 F100
G1 X-6.889 Y-3.000 Z5.478 F100
G1 X-6.889 Y0.000 Z5.478 F100
G1 X-6.889 Y-3.000 Z5.478 F100
G1 X-7.025 Y0.000 Z5.573 F100
G1 X-7.025 Y0.000 Z5.573 F100
G1 X-6.889 Y-3.000 Z5.478 F100
G1 X-7.025 Y-3.000 Z5.573 F100
G1 X-7.025 Y0.000 Z5.573 F100
G1 X-7.025 Y-3.000 Z5.573 F100
G1 X-7.175 Y0.000 Z5.643 F100
G1 X-7.175 Y0.000 Z5.643 F100
G1 X-7.025 Y-3.000 Z5.573 F100
G1 X-7.175 Y-3.000 Z5.643 F100
G1 X-7.175 Y0.000 Z5.643 F100
G1 X-7.175 Y-3.000 Z5.643 F100
G1 X-7.335 Y0.000 Z5.686 F100
G1 X-7.335 Y0.000 Z5.686 F100
G1 X-7.175 Y-3.000 Z5.643 F100
G1 X-7.335 Y-3.000 Z5.686 F100
G1 X-7.335 Y0.000 Z5.686 F100
G1 X-7.335 Y-3.000 Z5.686 F100
G1 X-7.500 Y0.000 Z5.700 F100
G1 X-7.500 Y0.000 Z5.700 F100
G1 X-7.335 Y-3.000 Z5.686 F100
G1 X-7.500 Y-3.000 Z5.700 F100
G1 X-7.500 Y0.000 Z5.700 F100
G1 X-7.500 Y-3.000 Z5.700 F100
G1 X-7.665 Y0.000 Z5.686 F100
G1 X-7.665 Y0.000 Z5.686 F100
G1 X-7.500 Y-3.000 Z5.700 F100
G1 X-7.665 Y-3.000 Z5.686 F100
G1 X-7.665 Y0.000 Z5.686 F100
G1 X-7.665 Y-3.000 Z5.686 F100
G1 X-7.825 Y0.000 Z5.643 F100
G1 X-7.825 Y0.000 Z5.643 F100
G1 X-7.665 Y-3.000 Z5.686 F100
G1 X-7.825 Y-3.000 Z5.643 F100
G1 X-7.825 Y0.000 Z5.643 F100
G1 X-7.825 Y-3.000 Z5.643 F100
G1 X-7.975 Y0.000 Z5.573 F100
G1 X-7.975 Y0.000 Z5.573 F100
G1 X-7.825 Y-3.000 Z5.643 F100
G1 X-7.975 Y-3.000 Z5.573 F100
G1 X-7.975 Y0.000 Z5.573 F100
G1 X-7.975 Y-3.000 Z5.573 F100
G1 X-8.111 Y0.000 Z5.478 F100
G1 X-8.111 Y0.000 Z5.478 F100
G1 X-7.975 Y-3.000 Z5.573 F100
G1 X-8.111 Y-3.000 Z5.478 F100
G1 X-8.111 Y0.000 Z5.478 F100
G1 X-8.111 Y-3.000 Z5.478 F100
G1 X-8.228 Y0.000 Z5.361 F100
G1 X-8.228 Y0.000 Z5.361 F100
G1 X-8.111 Y-3.000 Z5.478 F100
G1 X-8.228 Y-3.000 Z5.361 F100
G1 X-8.228 Y0.000 Z5.361 F100
G1 X-8.228 Y-3.000 Z5.361 F100
G1 X-8.323 Y0.000 Z5.225 F100
G1 X-8.323 Y0.000 Z5.225 F100
G1 X-8.228 Y-3.000 Z5.361 F100
G1 X-8.323 Y-3.000 Z5.225 F100
G1 X-8.323 Y0.000 Z5.225 F100
G1 X-8.323 Y-3.000 Z5.225 F100
G1 X-8.393 Y0.000 Z5.075 F100
G1 X-8.393 Y0.000 Z5.075 F100
G1 X-8.323 Y-3.000 Z5.225 F100
G1 X-8.393 Y-3.000 Z5.075 F100
G1 X-8.393 Y0.000 Z5.075 F100
G1 X-8.393 Y-3.000 Z5.075 F100
G1 X-8.436 Y0.000 Z4.915 F100
G1 X-8.436 Y0.000 Z4.915 F100
G1 X-8.393 Y-3.000 Z5.075 F100
G1 X-8.436 Y-3.000 Z4.915 F100
G1 X-16.473 Y-3.000 Z1.686 F100
G1 X-16.000 Y-3.000 Z1.650 F100
G1 X-16.000 Y-1.241 Z3.000 F100
G1 X-16.000 Y-1.241 Z3.000 F100
G1 X-16.000 Y-3.000 Z1.650 F100
G1 X-15.527 Y-3.000 Z1.686 F100
G1 X-16.000 Y-1.241 Z3.000 F100
G1 X-15.527 Y-3.000 Z1.686 F100
G1 X-15.696 Y-1.241 Z3.027 F100
G1 X-15.696 Y-1.241 Z3.027 F100
G1 X-15.527 Y-3.000 Z1.686 F100
G1 X-15.065 Y-3.000 Z1.794 F100
G1 X-15.696 Y-1.241 Z3.027 F100
G1 X-15.065 Y-3.000 Z1.794 F100
G1 X-15.401 Y-1.241 Z3.106 F100
G1 X-15.401 Y-1.241 Z3.106 F100
G1 X-15.065 Y-3.000 Z1.794 F100
G1 X-14.624 Y-3.000 Z1.972 F100
G1 X-15.401 Y-1.241 Z3.106 F100
G1 X-14.624 Y-3.000 Z1.972 F100
G1 X-15.125 Y-1.241 Z3.234 F100
G1 X-15.125 Y-1.241 Z3.234 F100
G1 X-14.624 Y-3.000 Z1.972 F100
G1 X-14.217 Y-3.000 Z2.214 F100
G1 X-15.125 Y-1.241 Z3.234 F100
G1 X-14.217 Y-3.000 Z2.214 F100
G1 X-14.875 Y-1.241 Z3.409 F100
G1 X-14.875 Y-1.241 Z3.409 F100
G1 X-14.217 Y-3.000 Z2.214 F100
G1 X-13.850 Y-3.000 Z2.516 F100
G1 X-14.875 Y-1.241 Z3.409 F100
G1 X-13.850 Y-3.000 Z2.516 F100
G1 X-14.659 Y-1.241 Z3.625 F100
G1 X-14.659 Y-1.241 Z3.625 F100
G1 X-13.850 Y-3.000 Z2.516 F100
G1 X-13.535 Y-3.000 Z2.871 F100
G1 X-14.659 Y-1.241 Z3.625 F100
G1 X-13.535 Y-3.000 Z2.871 F100
G1 X-14.484 Y-1.241 Z3.875 F100
G1 X-14.484 Y-1.241 Z3.875 F100
G1 X-13.535 Y-3.000 Z2.871 F100
G1 X-13.277 Y-3.000 Z3.269 F100
G1 X-14.484 Y-1.241 Z3.875 F100
G1 X-13.277 Y-3.000 Z3.269 F100
G1 X-14.356 Y-1.241 Z4.151 F100
G1 X-14.356 Y-1.241 Z4.151 F100
G1 X-13.277 Y-3.000 Z3.269 F100
G1 X-13.082 Y-3.000 Z3.702 F100
G1 X-14.356 Y-1.241 Z4.151 F100
G1 X-13.082 Y-3.000 Z3.702 F100
G1 X-12.957 Y-3.000 Z4.160 F100
G1 X-14.356 Y-1.241 Z4.151 F100
G1 X-12.957 Y-3.000 Z4.160 F100
G1 X-14.277 Y-1.241 Z4.446 F100
G1 X-14.277 Y-1.241 Z4.446 F100
G1 X-12.957 Y-3.000 Z4.160 F100
G1 X-12.902 Y-3.000 Z4.631 F100
G1 X-14.277 Y-1.241 Z4.446 F100
G1 X-12.902 Y-3.000 Z4.631 F100
G1 X-14.250 Y-1.241 Z4.750 F100
G1 X-14.250 Y-1.241 Z4.750 F100
G1 X-12.902 Y-3.000 Z4.631 F100
G1 X-12.920 Y-3.000 Z5.106 F100
G1 X-14.250 Y-1.241 Z4.750 F100
G1 X-12.920 Y-3.000 Z5.106 F100
G1 X-14.277 Y-1.241 Z5.054 F100
G1 X-14.277 Y-1.241 Z5.054 F100
G1 X-12.920 Y-3.000 Z5.106 F100
G1 X-13.011 Y-3.000 Z5.571 F100
G1 X-14.277 Y-1.241 Z5.054 F100
G1 X-13.011 Y-3.000 Z5.571 F100
G1 X-14.356 Y-1.241 Z5.349 F100
G1 X-14.356 Y-1.241 Z5.349 F100
G1 X-13.011 Y-3.000 Z5.571 F100
G1 X-13.171 Y-3.000 Z6.018 F100
G1 X-14.356 Y-1.241 Z5.349 F100
G1 X-13.171 Y-3.000 Z6.018 F100
G1 X-14.484 Y-1.241 Z5.625 F100
G1 X-14.484 Y-1.241 Z5.625 F100
G1 X-13.171 Y-3.000 Z6.018 F100
G1 X-13.398 Y-3.000 Z6.435 F100
G1 X-14.484 Y-1.241 Z5.625 F100
G1 X-13.398 Y-3.000 Z6.435 F100
G1 X-14.659 Y-1.241 Z5.875 F100
G1 X-14.659 Y-1.241 Z5.875 F100
G1 X-13.398 Y-3.000 Z6.435 F100
G1 X-13.686 Y-3.000 Z6.813 F100
G1 X-14.659 Y-1.241 Z5.875 F100
G1 X-13.686 Y-3.000 Z6.813 F100
G1 X-14.875 Y-1.241 Z6.091 F100
G1 X-14.875 Y-1.241 Z6.091 F100
G1 X-13.686 Y-3.000 Z6.813 F100
G1 X-14.028 Y-3.000 Z7.142 F100
G1 X-14.875 Y-1.241 Z6.091 F100
G1 X-14.028 Y-3.000 Z7.142 F100
G1 X-14.416 Y-3.000 Z7.415 F100
G1 X-14.875 Y-1.241 Z6.091 F100
G1 X-14.416 Y-3.000 Z7.415 F100
G1 X-15.125 Y-1.241 Z6.266 F100
G1 X-15.125 Y-1.241 Z6.266 F100
G1 X-14.416 Y-3.000 Z7.415 F100
G1 X-14.841 Y-3.000 Z7.625 F100
G1 X-15.125 Y-1.241 Z6.266 F100
G1 X-14.841 Y-3.000 Z7.625 F100
G1 X-15.401 Y-1.241 Z6.394 F100
G1 X-15.401 Y-1.241 Z6.394 F100
G1 X-14.841 Y-3.000 Z7.625 F100
G1 X-15.294 Y-3.000 Z7.768 F100
G1 X-15.401 Y-1.241 Z6.394 F100
G1 X-15.294 Y-3.000 Z7.768 F100
G1 X-15.696 Y-1.241 Z6.473 F100
G1 X-15.696 Y-1.241 Z6.473 F100
G1 X-15.294 Y-3.000 Z7.768 F100
G1 X-15.763 Y-3.000 Z7.841 F100
G1 X-15.696 Y-1.241 Z6.473 F100
G1 X-15.763 Y-3.000 Z7.841 F100
G1 X-16.000 Y-1.241 Z6.500 F100
G1 X-16.000 Y-1.241 Z6.500 F100
G1 X-15.763 Y-3.000 Z7.841 F100
G1 X-16.237 Y-3.000 Z7.841 F100
G1 X-16.000 Y-1.241 Z6.500 F100
G1 X-16.237 Y-3.000 Z7.841 F100
G1 X-16.304 Y-1.241 Z6.473 F100
G1 X-16.304 Y-1.241 Z6.473 F100
G1 X-16.237 Y-3.000 Z7.841 F100
G1 X-16.706 Y-3.000 Z7.768 F100
G1 X-16.304 Y-1.241 Z6.473 F100
G1 X-16.706 Y-3.000 Z7.768 F100
G1 X-16.599 Y-1.241 Z6.394 F100
G1 X-16.599 Y-1.241 Z6.394 F100
G1 X-16.706 Y-3.000 Z7.768 F100
G1 X-17.159 Y-3.000 Z7.625 F100
G1 X-16.599 Y-1.241 Z6.394 F100
G1 X-17.159 Y-3.000 Z7.625 F100
G1 X-16.875 Y-1.241 Z6.266 F100
G1 X-16.875 Y-1.241 Z6.266 F100
G1 X-17.159 Y-3.000 Z7.625 F100
G1 X-17.584 Y-3.000 Z7.415 F100
G1 X-16.875 Y-1.241 Z6.266 F100
G1 X-17.584 Y-3.000 Z7.415 F100
G1 X-17.125 Y-1.241 Z6.091 F100
G1 X-17.125 Y-1.241 Z6.091 F100
G1 X-17.584 Y-3.000 Z7.415 F100
G1 X-17.972 Y-3.000 Z7.142 F100
G1 X-17.125 Y-1.241 Z6.091 F100
G1 X-17.972 Y-3.000 Z7.142 F100
G1 X-18.314 Y-3.000 Z6.813 F100
G1 X-17.125 Y-1.241 Z6.091 F100
G1 X-18.314 Y-3.000 Z6.813 F100
G1 X-17.341 Y-1.241 Z5.875 F100
G1 X-17.341 Y-1.241 Z5.875 F100
G1 X-18.314 Y-3.000 Z6.813 F100
G1 X-18.602 Y-3.000 Z6.435 F100
G1 X-17.341 Y-1.241 Z5.875 F100
G1 X-18.602 Y-3.000 Z6.435 F100
G1 X-17.516 Y-1.241 Z5.625 F100
G1 X-17.516 Y-1.241 Z5.625 F100
G1 X-18.602 Y-3.000 Z6.435 F100
G1 X-18.829 Y-3.000 Z6.018 F100
G1 X-17.516 Y-1.241 Z5.625 F100
G1 X-18.829 Y-3.000 Z6.018 F100
G1 X-17.644 Y-1.241 Z5.349 F100
G1 X-17.644 Y-1.241 Z5.349 F100
G1 X-18.829 Y-3.000 Z6.018 F100
G1 X-18.989 Y-3.000 Z5.571 F100
G1 X-17.644 Y-1.241 Z5.349 F100
G1 X-18.989 Y-3.000 Z5.571 F100
G1 X-17.723 Y-1.241 Z5.054 F100
G1 X-17.723 Y-1.241 Z5.054 F100
G1 X-18.989 Y-3.000 Z5.571 F100
G1 X-19.080 Y-3.000 Z5.106 F100
G1 X-17.723 Y-1.241 Z5.054 F100
G1 X-19.080 Y-3.000 Z5.106 F100
G1 X-17.750 Y-1.241 Z4.750 F100
G1 X-17.750 Y-1.241 Z4.750 F100
G1 X-19.080 Y-3.000 Z5.106 F100
G1 X-19.098 Y-3.000 Z4.631 F100
G1 X-17.750 Y-1.241 Z4.750 F100
G1 X-19.098 Y-3.000 Z4.631 F100
G1 X-17.723 Y-1.241 Z4.446 F100
G1 X-17.723 Y-1.241 Z4.446 F100
G1 X-19.098 Y-3.000 Z4.631 F100
G1 X-19.043 Y-3.000 Z4.160 F100
G1 X-17.723 Y-1.241 Z4.446 F100
G1 X-19.043 Y-3.000 Z4.160 F100
G1 X-17.644 Y-1.241 Z4.151 F100
G1 X-17.644 Y-1.241 Z4.151 F100
G1 X-19.043 Y-3.000 Z4.160 F100
G1 X-18.918 Y-3.000 Z3.702 F100
G1 X-17.644 Y-1.241 Z4.151 F100
G1 X-18.918 Y-3.000 Z3.702 F100
G1 X-18.723 Y-3.000 Z3.269 F100
G1 X-17.644 Y-1.241 Z4.151 F100
G1 X-18.723 Y-3.000 Z3.269 F100
G1 X-17.516 Y-1.241 Z3.875 F100
G1 X-17.516 Y-1.241 Z3.875 F100
G1 X-18.723 Y-3.000 Z3.269 F100
G1 X-18.465 Y-3.000 Z2.871 F100
G1 X-17.516 Y-1.241 Z3.875 F100
G1 X-18.465 Y-3.000 Z2.871 F100
G1 X-17.341 Y-1.241 Z3.625 F100
G1 X-17.341 Y-1.241 Z3.625 F100
G1 X-18.465 Y-3.000 Z2.871 F100
G1 X-18.150 Y-3.000 Z2.516 F100
G1 X-17.341 Y-1.241 Z3.625 F100
G1 X-18.150 Y-3.000 Z2.516 F100
G1 X-17.125 Y-1.241 Z3.409 F100
G1 X-17.125 Y-1.241 Z3.409 F100
G1 X-18.150 Y-3.000 Z2.516 F100
G1 X-17.783 Y-3.000 Z2.214 F100
G1 X-17.125 Y-1.241 Z3.409 F100
G1 X-17.783 Y-3.000 Z2.214 F100
G1 X-16.875 Y-1.241 Z3.234 F100
G1 X-16.875 Y-1.241 Z3.234 F100
G1 X-17.783 Y-3.000 Z2.214 F100
G1 X-17.376 Y-3.000 Z1.972 F100
G1 X-16.875 Y-1.241 Z3.234 F100
G1 X-17.376 Y-3.000 Z1.972 F100
G1 X-16.599 Y-1.241 Z3.106 F100
G1 X-16.599 Y-1.241 Z3.106 F100
G1 X-17.376 Y-3.000 Z1.972 F100
G1 X-16.935 Y-3.000 Z1.794 F100
G1 X-16.599 Y-1.241 Z3.106 F100
G1 X-16.935 Y-3.000 Z1.794 F100
G1 X-16.304 Y-1.241 Z3.027 F100
G1 X-16.304 Y-1.241 Z3.027 F100
G1 X-16.935 Y-3.000 Z1.794 F100
G1 X-16.473 Y-3.000 Z1.686 F100
G1 X-16.304 Y-1.241 Z3.027 F100
G1 X-16.473 Y-3.000 Z1.686 F100
G1 X-16.000 Y-1.241 Z3.000 F100
G1 X-15.696 Y-0.000 Z6.473 F100
G1 X-15.696 Y-1.241 Z6.473 F100
G1 X-16.000 Y-0.000 Z6.500 F100
G1 X-16.000 Y-0.000 Z6.500 F100
G1 X-15.696 Y-1.241 Z6.473 F100
G1 X-16.000 Y-1.241 Z6.500 F100
G1 X-16.000 Y-0.000 Z6.500 F100
G1 X-16.000 Y-1.241 Z6.500 F100
G1 X-16.304 Y-0.000 Z6.473 F100
G1 X-16.304 Y-0.000 Z6.473 F100
G1 X-16.000 Y-1.241 Z6.500 F100
G1 X-16.304 Y-1.241 Z6.473 F100
G1 X-16.304 Y-0.000 Z6.473 F100
G1 X-16.304 Y-1.241 Z6.473 F100
G1 X-16.599 Y-0.000 Z6.394 F100
G1 X-16.599 Y-0.000 Z6.394 F100
G1 X-16.304 Y-1.241 Z6.473 F100
G1 X-16.599 Y-1.241 Z6.394 F100
G1 X-16.599 Y-0.000 Z6.394 F100
G1 X-16.599 Y-1.241 Z6.394 F100
G1 X-16.875 Y-0.000 Z6.266 F100
G1 X-16.875 Y-0.000 Z6.266 F100
G1 X-16.599 Y-1.241 Z6.394 F100
G1 X-16.875 Y-1.241 Z6.266 F100
G1 X-16.875 Y-0.000 Z6.266 F100
G1 X-16.875 Y-1.241 Z6.266 F100
G1 X-17.125 Y-0.000 Z6.091 F100
G1 X-17.125 Y-0.000 Z6.091 F100
G1 X-16.875 Y-1.241 Z6.266 F100
G1 X-17.125 Y-1.241 Z6.091 F100
G1 X-17.125 Y-0.000 Z6.091 F100
G1 X-17.125 Y-1.241 Z6.091 F100
G1 X-17.341 Y-0.000 Z5.875 F100
G1 X-17.341 Y-0.000 Z5.875 F100
G1 X-17.125 Y-1.241 Z6.091 F100
G1 X-17.341 Y-1.241 Z5.875 F100
G1 X-17.341 Y-0.000 Z5.875 F100
G1 X-17.341 Y-1.241 Z5.875 F100
G1 X-17.516 Y-0.000 Z5.625 F100
G1 X-17.516 Y-0.000 Z5.625 F100
G1 X-17.341 Y-1.241 Z5.875 F100
G1 X-17.516 Y-1.241 Z5.625 F100
G1 X-17.516 Y-0.000 Z5.625 F100
G1 X-17.516 Y-1.241 Z5.625 F100
G1 X-17.644 Y-0.000 Z5.349 F100
G1 X-17.644 Y-0.000 Z5.349 F100
G1 X-17.516 Y-1.241 Z5.625 F100
G1 X-17.644 Y-1.241 Z5.349 F100
G1 X-17.644 Y-0.000 Z5.349 F100
G1 X-17.644 Y-1.241 Z5.349 F100
G1 X-17.723 Y-0.000 Z5.054 F100
G1 X-17.723 Y-0.000 Z5.054 F100
G1 X-17.644 Y-1.241 Z5.349 F100
G1 X-17.723 Y-1.241 Z5.054 F100
G1 X-17.723 Y-0.000 Z5.054 F100
G1 X-17.723 Y-1.241 Z5.054 F100
G1 X-17.750 Y-0.000 Z4.750 F100
G1 X-17.750 Y-0.000 Z4.750 F100
G1 X-17.723 Y-1.241 Z5.054 F100
G1 X-17.750 Y-1.241 Z4.750 F100
G1 X-17.750 Y-0.000 Z4.750 F100
G1 X-17.750 Y-1.241 Z4.750 F100
G1 X-17.723 Y-0.000 Z4.446 F100
G1 X-17.723 Y-0.000 Z4.446 F100
G1 X-17.750 Y-1.241 Z4.750 F100
G1 X-17.723 Y-1.241 Z4.446 F100
G1 X-17.723 Y-0.000 Z4.446 F100
G1 X-17.723 Y-1.241 Z4.446 F100
G1 X-17.644 Y-0.000 Z4.151 F100
G1 X-17.644 Y-0.000 Z4.151 F100
G1 X-17.723 Y-1.241 Z4.446 F100
G1 X-17.644 Y-1.241 Z4.151 F100
G1 X-17.644 Y-0.000 Z4.151 F100
G1 X-17.644 Y-1.241 Z4.151 F100
G1 X-17.516 Y-0.000 Z3.875 F100
G1 X-17.516 Y-0.000 Z3.875 F100
G1 X-17.644 Y-1.241 Z4.151 F100
G1 X-17.516 Y-1.241 Z3.875 F100
G1 X-17.516 Y-0.000 Z3.875 F100
G1 X-17.516 Y-1.241 Z3.875 F100
G1 X-17.341 Y-0.000 Z3.625 F100
G1 X-17.341 Y-0.000 Z3.625 F100
G1 X-17.516 Y-1.241 Z3.875 F100
G1 X-17.341 Y-1.241 Z3.625 F100
G1 X-17.341 Y-0.000 Z3.625 F100
G1 X-17.341 Y-1.241 Z3.625 F100
G1 X-17.125 Y-0.000 Z3.409 F100
G1 X-17.125 Y-0.000 Z3.409 F100
G1 X-17.341 Y-1.241 Z3.625 F100
G1 X-17.125 Y-1.241 Z3.409 F100
G1 X-17.125 Y-0.000 Z3.409 F100
G1 X-17.125 Y-1.241 Z3.409 F100
G1 X-16.875 Y-0.000 Z3.234 F100
G1 X-16.875 Y-0.000 Z3.234 F100
G1 X-17.125 Y-1.241 Z3.409 F100
G1 X-16.875 Y-1.241 Z3.234 F100
G1 X-16.875 Y-0.000 Z3.234 F100
G1 X-16.875 Y-1.241 Z3.234 F100
G1 X-16.599 Y-0.000 Z3.106 F100
G1 X-16.599 Y-0.000 Z3.106 F100
G1 X-16.875 Y-1.241 Z3.234 F100
G1 X-16.599 Y-1.241 Z3.106 F100
G1 X-16.599 Y-0.000 Z3.106 F100
G1 X-16.599 Y-1.241 Z3.106 F100
G1 X-16.304 Y-0.000 Z3.027 F100
G1 X-16.304 Y-0.000 Z3.027 F100
G1 X-16.599 Y-1.241 Z3.106 F100
G1 X-16.304 Y-1.241 Z3.027 F100
G1 X-16.304 Y-0.000 Z3.027 F100
G1 X-16.304 Y-1.241 Z3.027 F100
G1 X-16.000 Y-0.000 Z3.000 F100
G1 X-16.000 Y-0.000 Z3.000 F100
G1 X-16.304 Y-1.241 Z3.027 F100
G1 X-16.000 Y-1.241 Z3.000 F100
G1 X-16.000 Y-0.000 Z3.000 F100
G1 X-16.000 Y-1.241 Z3.000 F100
G1 X-15.696 Y-0.000 Z3.027 F100
G1 X-15.696 Y-0.000 Z3.027 F100
G1 X-16.000 Y-1.241 Z3.000 F100
G1 X-15.696 Y-1.241 Z3.027 F100
G1 X-15.696 Y-0.000 Z3.027 F100
G1 X-15.696 Y-1.241 Z3.027 F100
G1 X-15.401 Y-0.000 Z3.106 F100
G1 X-15.401 Y-0.000 Z3.106 F100
G1 X-15.696 Y-1.241 Z3.027 F100
G1 X-15.401 Y-1.241 Z3.106 F100
G1 X-15.401 Y-0.000 Z3.106 F100
G1 X-15.401 Y-1.241 Z3.106 F100
G1 X-15.125 Y-0.000 Z3.234 F100
G1 X-15.125 Y-0.000 Z3.234 F100
G1 X-15.401 Y-1.241 Z3.106 F100
G1 X-15.125 Y-1.241 Z3.234 F100
G1 X-15.125 Y-0.000 Z3.234 F100
G1 X-15.125 Y-1.241 Z3.234 F100
G1 X-14.875 Y-0.000 Z3.409 F100
G1 X-14.875 Y-0.000 Z3.409 F100
G1 X-15.125 Y-1.241 Z3.234 F100
G1 X-14.875 Y-1.241 Z3.409 F100
G1 X-14.875 Y-0.000 Z3.409 F100
G1 X-14.875 Y-1.241 Z3.409 F100
G1 X-14.659 Y-0.000 Z3.625 F100
G1 X-14.659 Y-0.000 Z3.625 F100
G1 X-14.875 Y-1.241 Z3.409 F100
G1 X-14.659 Y-1.241 Z3.625 F100
G1 X-14.659 Y-0.000 Z3.625 F100
G1 X-14.659 Y-1.241 Z3.625 F100
G1 X-14.484 Y-0.000 Z3.875 F100
G1 X-14.484 Y-0.000 Z3.875 F100
G1 X-14.659 Y-1.241 Z3.625 F100
G1 X-14.484 Y-1.241 Z3.875 F100
G1 X-14.484 Y-0.000 Z3.875 F100
G1 X-14.484 Y-1.241 Z3.875 F100
G1 X-14.356 Y-0.000 Z4.151 F100
G1 X-14.356 Y-0.000 Z4.151 F100
G1 X-14.484 Y-1.241 Z3.875 F100
G1 X-14.356 Y-1.241 Z4.151 F100
G1 X-14.356 Y-0.000 Z4.151 F100
G1 X-14.356 Y-1.241 Z4.151 F100
G1 X-14.277 Y-0.000 Z4.446 F100
G1 X-14.277 Y-0.000 Z4.446 F100
G1 X-14.356 Y-1.241 Z4.151 F100
G1 X-14.277 Y-1.241 Z4.446 F100
G1 X-14.277 Y-0.000 Z4.446 F100
G1 X-14.277 Y-1.241 Z4.446 F100
G1 X-14.250 Y-0.000 Z4.750 F100
G1 X-14.250 Y-0.000 Z4.750 F100
G1 X-14.277 Y-1.241 Z4.446 F100
G1 X-14.250 Y-1.241 Z4.750 F100
G1 X-14.250 Y-0.000 Z4.750 F100
G1 X-14.250 Y-1.241 Z4.750 F100
G1 X-14.277 Y-0.000 Z5.054 F100
G1 X-14.277 Y-0.000 Z5.054 F100
G1 X-14.250 Y-1.241 Z4.750 F100
G1 X-14.277 Y-1.241 Z5.054 F100
G1 X-14.277 Y-0.000 Z5.054 F100
G1 X-14.277 Y-1.241 Z5.054 F100
G1 X-14.356 Y-0.000 Z5.349 F100
G1 X-14.356 Y-0.000 Z5.349 F100
G1 X-14.277 Y-1.241 Z5.054 F100
G1 X-14.356 Y-1.241 Z5.349 F100
G1 X-14.356 Y-0.000 Z5.349 F100
G1 X-14.356 Y-1.241 Z5.349 F100
G1 X-14.484 Y-0.000 Z5.625 F100
G1 X-14.484 Y-0.000 Z5.625 F100
G1 X-14.356 Y-1.241 Z5.349 F100
G1 X-14.484 Y-1.241 Z5.625 F100
G1 X-14.484 Y-0.000 Z5.625 F100
G1 X-14.484 Y-1.241 Z5.625 F100
G1 X-14.659 Y-0.000 Z5.875 F100
G1 X-14.659 Y-0.000 Z5.875 F100
G1 X-14.484 Y-1.241 Z5.625 F100
G1 X-14.659 Y-1.241 Z5.875 F100
G1 X-14.659 Y-0.000 Z5.875 F100
G1 X-14.659 Y-1.241 Z5.875 F100
G1 X-14.875 Y-0.000 Z6.091 F100
G1 X-14.875 Y-0.000 Z6.091 F100
G1 X-14.659 Y-1.241 Z5.875 F100
G1 X-14.875 Y-1.241 Z6.091 F100
G1 X-14.875 Y-0.000 Z6.091 F100
G1 X-14.875 Y-1.241 Z6.091 F100
G1 X-15.125 Y-0.000 Z6.266 F100
G1 X-15.125 Y-0.000 Z6.266 F100
G1 X-14.875 Y-1.241 Z6.091 F100
G1 X-15.125 Y-1.241 Z6.266 F100
G1 X-15.125 Y-0.000 Z6.266 F100
G1 X-15.125 Y-1.241 Z6.266 F100
G1 X-15.401 Y-0.000 Z6.394 F100
G1 X-15.401 Y-0.000 Z6.394 F100
G1 X-15.125 Y-1.241 Z6.266 F100
G1 X-15.401 Y-1.241 Z6.394 F100
G1 X-15.401 Y-0.000 Z6.394 F100
G1 X-15.401 Y-1.241 Z6.394 F100
G1 X-15.696 Y-0.000 Z6.473 F100
G1 X-15.696 Y-0.000 Z6.473 F100
G1 X-15.401 Y-1.241 Z6.394 F100
G1 X-15.696 Y-1.241 Z6.473 F100
G1 X15.527 Y-3.000 Z1.686 F100
G1 X16.000 Y-3.000 Z1.650 F100
G1 X16.000 Y-1.241 Z3.000 F100
G1 X16.000 Y-1.241 Z3.000 F100
G1 X16.000 Y-3.000 Z1.650 F100
G1 X16.473 Y-3.000 Z1.686 F100
G1 X16.000 Y-1.241 Z3.000 F100
G1 X16.473 Y-3.000 Z1.686 F100
G1 X16.304 Y-1.241 Z3.027 F100
G1 X16.304 Y-1.241 Z3.027 F100
G1 X16.473 Y-3.000 Z1.686 F100
G1 X16.935 Y-3.000 Z1.794 F100
G1 X16.304 Y-1.241 Z3.027 F100
G1 X16.935 Y-3.000 Z1.794 F100
G1 X16.599 Y-1.241 Z3.106 F100
G1 X16.599 Y-1.241 Z3.106 F100
G1 X16.935 Y-3.000 Z1.794 F100
G1 X17.376 Y-3.000 Z1.972 F100
G1 X16.599 Y-1.241 Z3.106 F100
G1 X17.376 Y-3.000 Z1.972 F100
G1 X16.875 Y-1.241 Z3.234 F100
G1 X16.875 Y-1.241 Z3.234 F100
G1 X17.376 Y-3.000 Z1.972 F100
G1 X17.783 Y-3.000 Z2.214 F100
G1 X16.875 Y-1.241 Z3.234 F100
G1 X17.783 Y-3.000 Z2.214 F100
G1 X17.125 Y-1.241 Z3.409 F100
G1 X17.125 Y-1.241 Z3.409 F100
G1 X17.783 Y-3.000 Z2.214 F100
G1 X18.150 Y-3.000 Z2.516 F100
G1 X17.125 Y-1.241 Z3.409 F100
G1 X18.150 Y-3.000 Z2.516 F100
G1 X17.341 Y-1.241 Z3.625 F100
G1 X17.341 Y-1.241 Z3.625 F100
G1 X18.150 Y-3.000 Z2.516 F100
G1 X18.465 Y-3.000 Z2.871 F100
G1 X17.341 Y-1.241 Z3.625 F100
G1 X18.465 Y-3.000 Z2.871 F100
G1 X17.516 Y-1.241 Z3.875 F100
G1 X17.516 Y-1.241 Z3.875 F100
G1 X18.465 Y-3.000 Z2.871 F100
G1 X18.723 Y-3.000 Z3.269 F100
G1 X17.516 Y-1.241 Z3.875 F100
G1 X18.723 Y-3.000 Z3.269 F100
G1 X17.644 Y-1.241 Z4.151 F100
G1 X17.644 Y-1.241 Z4.151 F100
G1 X18.723 Y-3.000 Z3.269 F100
G1 X18.918 Y-3.000 Z3.702 F100
G1 X17.644 Y-1.241 Z4.151 F100
G1 X18.918 Y-3.000 Z3.702 F100
G1 X19.043 Y-3.000 Z4.160 F100
G1 X17.644 Y-1.241 Z4.151 F100
G1 X19.043 Y-3.000 Z4.160 F100
G1 X17.723 Y-1.241 Z4.446 F100
G1 X17.723 Y-1.241 Z4.446 F100
G1 X19.043 Y-3.000 Z4.160 F100
G1 X19.098 Y-3.000 Z4.631 F100
G1 X17.723 Y-1.241 Z4.446 F100
G1 X19.098 Y-3.000 Z4.631 F100
G1 X17.750 Y-1.241 Z4.750 F100
G1 X17.750 Y-1.241 Z4.750 F100
G1 X19.098 Y-3.000 Z4.631 F100
G1 X19.080 Y-3.000 Z5.106 F100
G1 X17.750 Y-1.241 Z4.750 F100
G1 X19.080 Y-3.000 Z5.106 F100
G1 X17.723 Y-1.241 Z5.054 F100
G1 X17.723 Y-1.241 Z5.054 F100
G1 X19.080 Y-3.000 Z5.106 F100
G1 X18.989 Y-3.000 Z5.571 F100
G1 X17.723 Y-1.241 Z5.054 F100
G1 X18.989 Y-3.000 Z5.571 F100
G1 X17.644 Y-1.241 Z5.349 F100
G1 X17.644 Y-1.241 Z5.349 F100
G1 X18.989 Y-3.000 Z5.571 F100
G1 X18.829 Y-3.000 Z6.018 F100
G1 X17.644 Y-1.241 Z5.349 F100
G1 X18.829 Y-3.000 Z6.018 F100
G1 X17.516 Y-1.241 Z5.625 F100
G1 X17.516 Y-1.241 Z5.625 F100
G1 X18.829 Y-3.000 Z6.018 F100
G1 X18.602 Y-3.000 Z6.435 F100
G1 X17.516 Y-1.241 Z5.625 F100
G1 X18.602 Y-3.000 Z6.435 F100
G1 X17.341 Y-1.241 Z5.875 F100
G1 X17.341 Y-1.241 Z5.875 F100
G1 X18.602 Y-3.000 Z6.435 F100
G1 X18.314 Y-3.000 Z6.813 F100
G1 X17.341 Y-1.241 Z5.875 F100
G1 X18.314 Y-3.000 Z6.813 F100
G1 X17.125 Y-1.241 Z6.091 F100
G1 X17.125 Y-1.241 Z6.091 F100
G1 X18.314 Y-3.000 Z6.813 F100
G1 X17.972 Y-3.000 Z7.142 F100
G1 X17.125 Y-1.241 Z6.091 F100
G1 X17.972 Y-3.000 Z7.142 F100
G1 X17.584 Y-3.000 Z7.415 F100
G1 X17.125 Y-1.241 Z6.091 F100
G1 X17.584 Y-3.000 Z7.415 F100
G1 X16.875 Y-1.241 Z6.266 F100
G1 X16.875 Y-1.241 Z6.266 F100
G1 X17.584 Y-3.000 Z7.415 F100
G1 X17.159 Y-3.000 Z7.625 F100
G1 X16.875 Y-1.241 Z6.266 F100
G1 X17.159 Y-3.000 Z7.625 F100
G1 X16.599 Y-1.241 Z6.394 F100
G1 X16.599 Y-1.241 Z6.394 F100
G1 X17.159 Y-3.000 Z7.625 F100
G1 X16.706 Y-3.000 Z7.768 F100
G1 X16.599 Y-1.241 Z6.394 F100
G1 X16.706 Y-3.000 Z7.768 F100
G1 X16.304 Y-1.241 Z6.473 F100
G1 X16.304 Y-1.241 Z6.473 F100
G1 X16.706 Y-3.000 Z7.768 F100
G1 X16.237 Y-3.000 Z7.841 F100
G1 X16.304 Y-1.241 Z6.473 F100
G1 X16.237 Y-3.000 Z7.841 F100
G1 X16.000 Y-1.241 Z6.500 F100
G1 X16.000 Y-1.241 Z6.500 F100
G1 X16.237 Y-3.000 Z7.841 F100
G1 X15.763 Y-3.000 Z7.841 F100
G1 X16.000 Y-1.241 Z6.500 F100
G1 X15.763 Y-3.000 Z7.841 F100
G1 X15.696 Y-1.241 Z6.473 F100
G1 X15.696 Y-1.241 Z6.473 F100
G1 X15.763 Y-3.000 Z7.841 F100
G1 X15.294 Y-3.000 Z7.768 F100
G1 X15.696 Y-1.241 Z6.473 F100
G1 X15.294 Y-3.000 Z7.768 F100
G1 X15.401 Y-1.241 Z6.394 F100
G1 X15.401 Y-1.241 Z6.394 F100
G1 X15.294 Y-3.000 Z7.768 F100
G1 X14.841 Y-3.000 Z7.625 F100
G1 X15.401 Y-1.241 Z6.394 F100
G1 X14.841 Y-3.000 Z7.625 F100
G1 X15.125 Y-1.241 Z6.266 F100
G1 X15.125 Y-1.241 Z6.266 F100
G1 X14.841 Y-3.000 Z7.625 F100
G1 X14.416 Y-3.000 Z7.415 F100
G1 X15.125 Y-1.241 Z6.266 F100
G1 X14.416 Y-3.000 Z7.415 F100
G1 X14.875 Y-1.241 Z6.091 F100
G1 X14.875 Y-1.241 Z6.091 F100
G1 X14.416 Y-3.000 Z7.415 F100
G1 X14.028 Y-3.000 Z7.142 F100
G1 X14.875 Y-1.241 Z6.091 F100
G1 X14.028 Y-3.000 Z7.142 F100
G1 X13.686 Y-3.000 Z6.813 F100
G1 X14.875 Y-1.241 Z6.091 F100
G1 X13.686 Y-3.000 Z6.813 F100
G1 X14.659 Y-1.241 Z5.875 F100
G1 X14.659 Y-1.241 Z5.875 F100
G1 X13.686 Y-3.000 Z6.813 F100
G1 X13.398 Y-3.000 Z6.435 F100
G1 X14.659 Y-1.241 Z5.875 F100
G1 X13.398 Y-3.000 Z6.435 F100
G1 X14.484 Y-1.241 Z5.625 F100
G1 X14.484 Y-1.241 Z5.625 F100
G1 X13.398 Y-3.000 Z6.435 F100
G1 X13.171 Y-3.000 Z6.018 F100
G1 X14.484 Y-1.241 Z5.625 F100
G1 X13.171 Y-3.000 Z6.018 F100
G1 X14.356 Y-1.241 Z5.349 F100
G1 X14.356 Y-1.241 Z5.349 F100
G1 X13.171 Y-3.000 Z6.018 F100
G1 X13.011 Y-3.000 Z5.571 F100
G1 X14.356 Y-1.241 Z5.349 F100
G1 X13.011 Y-3.000 Z5.571 F100
G1 X14.277 Y-1.241 Z5.054 F100
G1 X14.277 Y-1.241 Z5.054 F100
G1 X13.011 Y-3.000 Z5.571 F100
G1 X12.920 Y-3.000 Z5.106 F100
G1 X14.277 Y-1.241 Z5.054 F100
G1 X12.920 Y-3.000 Z5.106 F100
G1 X14.250 Y-1.241 Z4.750 F100
G1 X14.250 Y-1.241 Z4.750 F100
G1 X12.920 Y-3.000 Z5.106 F100
G1 X12.902 Y-3.000 Z4.631 F100
G1 X14.250 Y-1.241 Z4.750 F100
G1 X12.902 Y-3.000 Z4.631 F100
G1 X14.277 Y-1.241 Z4.446 F100
G1 X14.277 Y-1.241 Z4.446 F100
G1 X12.902 Y-3.000 Z4.631 F100
G1 X12.957 Y-3.000 Z4.160 F100
G1 X14.277 Y-1.241 Z4.446 F100
G1 X12.957 Y-3.000 Z4.160 F100
G1 X14.356 Y-1.241 Z4.151 F100
G1 X14.356 Y-1.241 Z4.151 F100
G1 X12.957 Y-3.000 Z4.160 F100
G1 X13.082 Y-3.000 Z3.702 F100
G1 X14.356 Y-1.241 Z4.151 F100
G1 X13.082 Y-3.000 Z3.702 F100
G1 X13.277 Y-3.000 Z3.269 F100
G1 X14.356 Y-1.241 Z4.151 F100
G1 X13.277 Y-3.000 Z3.269 F100
G1 X14.484 Y-1.241 Z3.875 F100
G1 X14.484 Y-1.241 Z3.875 F100
G1 X13.277 Y-3.000 Z3.269 F100
G1 X13.535 Y-3.000 Z2.871 F100
G1 X14.484 Y-1.241 Z3.875 F100
G1 X13.535 Y-3.000 Z2.871 F100
G1 X14.659 Y-1.241 Z3.625 F100
G1 X14.659 Y-1.241 Z3.625 F100
G1 X13.535 Y-3.000 Z2.871 F100
G1 X13.850 Y-3.000 Z2.516 F100
G1 X14.659 Y-1.241 Z3.625 F100
G1 X13.850 Y-3.000 Z2.516 F100
G1 X14.875 Y-1.241 Z3.409 F100
G1 X14.875 Y-1.241 Z3.409 F100
G1 X13.850 Y-3.000 Z2.516 F100
G1 X14.217 Y-3.000 Z2.214 F100
G1 X14.875 Y-1.241 Z3.409 F100
G1 X14.217 Y-3.000 Z2.214 F100
G1 X15.125 Y-1.241 Z3.234 F100
G1 X15.125 Y-1.241 Z3.234 F100
G1 X14.217 Y-3.000 Z2.214 F100
G1 X14.624 Y-3.000 Z1.972 F100
G1 X15.125 Y-1.241 Z3.234 F100
G1 X14.624 Y-3.000 Z1.972 F100
G1 X15.401 Y-1.241 Z3.106 F100
G1 X15.401 Y-1.241 Z3.106 F100
G1 X14.624 Y-3.000 Z1.972 F100
G1 X15.065 Y-3.000 Z1.794 F100
G1 X15.401 Y-1.241 Z3.106 F100
G1 X15.065 Y-3.000 Z1.794 F100
G1 X15.696 Y-1.241 Z3.027 F100
G1 X15.696 Y-1.241 Z3.027 F100
G1 X15.065 Y-3.000 Z1.794 F100
G1 X15.527 Y-3.000 Z1.686 F100
G1 X15.696 Y-1.241 Z3.027 F100
G1 X15.527 Y-3.000 Z1.686 F100
G1 X16.000 Y-1.241 Z3.000 F100
G1 X16.304 Y-0.000 Z6.473 F100
G1 X16.304 Y-1.241 Z6.473 F100
G1 X16.000 Y-0.000 Z6.500 F100
G1 X16.000 Y-0.000 Z6.500 F100
G1 X16.304 Y-1.241 Z6.473 F100
G1 X16.000 Y-1.241 Z6.500 F100
G1 X16.000 Y-0.000 Z6.500 F100
G1 X16.000 Y-1.241 Z6.500 F100
G1 X15.696 Y-0.000 Z6.473 F100
G1 X15.696 Y-0.000 Z6.473 F100
G1 X16.000 Y-1.241 Z6.500 F100
G1 X15.696 Y-1.241 Z6.473 F100
G1 X15.696 Y-0.000 Z6.473 F100
G1 X15.696 Y-1.241 Z6.473 F100
G1 X15.401 Y-0.000 Z6.394 F100
G1 X15.401 Y-0.000 Z6.394 F100
G1 X15.696 Y-1.241 Z6.473 F100
G1 X15.401 Y-1.241 Z6.394 F100
G1 X15.401 Y-0.000 Z6.394 F100
G1 X15.401 Y-1.241 Z6.394 F100
G1 X15.125 Y-0.000 Z6.266 F100
G1 X15.125 Y-0.000 Z6.266 F100
G1 X15.401 Y-1.241 Z6.394 F100
G1 X15.125 Y-1.241 Z6.266 F100
G1 X15.125 Y-0.000 Z6.266 F100
G1 X15.125 Y-1.241 Z6.266 F100
G1 X14.875 Y-0.000 Z6.091 F100
G1 X14.875 Y-0.000 Z6.091 F100
G1 X15.125 Y-1.241 Z6.266 F100
G1 X14.875 Y-1.241 Z6.091 F100
G1 X14.875 Y-0.000 Z6.091 F100
G1 X14.875 Y-1.241 Z6.091 F100
G1 X14.659 Y-0.000 Z5.875 F100
G1 X14.659 Y-0.000 Z5.875 F100
G1 X14.875 Y-1.241 Z6.091 F100
G1 X14.659 Y-1.241 Z5.875 F100
G1 X14.659 Y-0.000 Z5.875 F100
G1 X14.659 Y-1.241 Z5.875 F100
G1 X14.484 Y-0.000 Z5.625 F100
G1 X14.484 Y-0.000 Z5.625 F100
G1 X14.659 Y-1.241 Z5.875 F100
G1 X14.484 Y-1.241 Z5.625 F100
G1 X14.484 Y-0.000 Z5.625 F100
G1 X14.484 Y-1.241 Z5.625 F100
G1 X14.356 Y-0.000 Z5.349 F100
G1 X14.356 Y-0.000 Z5.349 F100
G1 X14.484 Y-1.241 Z5.625 F100
G1 X14.356 Y-1.241 Z5.349 F100
G1 X14.356 Y-0.000 Z5.349 F100
G1 X14.356 Y-1.241 Z5.349 F100
G1 X14.277 Y-0.000 Z5.054 F100
G1 X14.277 Y-0.000 Z5.054 F100
G1 X14.356 Y-1.241 Z5.349 F100
G1 X14.277 Y-1.241 Z5.054 F100
G1 X14.277 Y-0.000 Z5.054 F100
G1 X14.277 Y-1.241 Z5.054 F100
G1 X14.250 Y-0.000 Z4.750 F100
G1 X14.250 Y-0.000 Z4.750 F100
G1 X14.277 Y-1.241 Z5.054 F100
G1 X14.250 Y-1.241 Z4.750 F100
G1 X14.250 Y-0.000 Z4.750 F100
G1 X14.250 Y-1.241 Z4.750 F100
G1 X14.277 Y-0.000 Z4.446 F100
G1 X14.277 Y-0.000 Z4.446 F100
G1 X14.250 Y-1.241 Z4.750 F100
G1 X14.277 Y-1.241 Z4.446 F100
G1 X14.277 Y-0.000 Z4.446 F100
G1 X14.277 Y-1.241 Z4.446 F100
G1 X14.356 Y-0.000 Z4.151 F100
G1 X14.356 Y-0.000 Z4.151 F100
G1 X14.277 Y-1.241 Z4.446 F100
G1 X14.356 Y-1.241 Z4.151 F100
G1 X14.356 Y-0.000 Z4.151 F100
G1 X14.356 Y-1.241 Z4.151 F100
G1 X14.484 Y-0.000 Z3.875 F100
G1 X14.484 Y-0.000 Z3.875 F100
G1 X14.356 Y-1.241 Z4.151 F100
G1 X14.484 Y-1.241 Z3.875 F100
G1 X14.484 Y-0.000 Z3.875 F100
G1 X14.484 Y-1.241 Z3.875 F100
G1 X14.659 Y-0.000 Z3.625 F100
G1 X14.659 Y-0.000 Z3.625 F100
G1 X14.484 Y-1.241 Z3.875 F100
G1 X14.659 Y-1.241 Z3.625 F100
G1 X14.659 Y-0.000 Z3.625 F100
G1 X14.659 Y-1.241 Z3.625 F100
G1 X14.875 Y-0.000 Z3.409 F100
G1 X14.875 Y-0.000 Z3.409 F100
G1 X14.659 Y-1.241 Z3.625 F100
G1 X14.875 Y-1.241 Z3.409 F100
G1 X14.875 Y-0.000 Z3.409 F100
G1 X14.875 Y-1.241 Z3.409 F100
G1 X15.125 Y-0.000 Z3.234 F100
G1 X15.125 Y-0.000 Z3.234 F100
G1 X14.875 Y-1.241 Z3.409 F100
G1 X15.125 Y-1.241 Z3.234 F100
G1 X15.125 Y-0.000 Z3.234 F100
G1 X15.125 Y-1.241 Z3.234 F100
G1 X15.401 Y-0.000 Z3.106 F100
G1 X15.401 Y-0.000 Z3.106 F100
G1 X15.125 Y-1.241 Z3.234 F100
G1 X15.401 Y-1.241 Z3.106 F100
G1 X15.401 Y-0.000 Z3.106 F100
G1 X15.401 Y-1.241 Z3.106 F100
G1 X15.696 Y-0.000 Z3.027 F100
G1 X15.696 Y-0.000 Z3.027 F100
G1 X15.401 Y-1.241 Z3.106 F100
G1 X15.696 Y-1.241 Z3.027 F100
G1 X15.696 Y-0.000 Z3.027 F100
G1 X15.696 Y-1.241 Z3.027 F100
G1 X16.000 Y-0.000 Z3.000 F100
G1 X16.000 Y-0.000 Z3.000 F100
G1 X15.696 Y-1.241 Z3.027 F100
G1 X16.000 Y-1.241 Z3.000 F100
G1 X16.000 Y-0.000 Z3.000 F100
G1 X16.000 Y-1.241 Z3.000 F100
G1 X16.304 Y-0.000 Z3.027 F100
G1 X16.304 Y-0.000 Z3.027 F100
G1 X16.000 Y-1.241 Z3.000 F100
G1 X16.304 Y-1.241 Z3.027 F100
G1 X16.304 Y-0.000 Z3.027 F100
G1 X16.304 Y-1.241 Z3.027 F100
G1 X16.599 Y-0.000 Z3.106 F100
G1 X16.599 Y-0.000 Z3.106 F100
G1 X16.304 Y-1.241 Z3.027 F100
G1 X16.599 Y-1.241 Z3.106 F100
G1 X16.599 Y-0.000 Z3.106 F100
G1 X16.599 Y-1.241 Z3.106 F100
G1 X16.875 Y-0.000 Z3.234 F100
G1 X16.875 Y-0.000 Z3.234 F100
G1 X16.599 Y-1.241 Z3.106 F100
G1 X16.875 Y-1.241 Z3.234 F100
G1 X16.875 Y-0.000 Z3.234 F100
G1 X16.875 Y-1.241 Z3.234 F100
G1 X17.125 Y-0.000 Z3.409 F100
G1 X17.125 Y-0.000 Z3.409 F100
G1 X16.875 Y-1.241 Z3.234 F100
G1 X17.125 Y-1.241 Z3.409 F100
G1 X17.125 Y-0.000 Z3.409 F100
G1 X17.125 Y-1.241 Z3.409 F100
G1 X17.341 Y-0.000 Z3.625 F100
G1 X17.341 Y-0.000 Z3.625 F100
G1 X17.125 Y-1.241 Z3.409 F100
G1 X17.341 Y-1.241 Z3.625 F100
G1 X17.341 Y-0.000 Z3.625 F100
G1 X17.341 Y-1.241 Z3.625 F100
G1 X17.516 Y-0.000 Z3.875 F100
G1 X17.516 Y-0.000 Z3.875 F100
G1 X17.341 Y-1.241 Z3.625 F100
G1 X17.516 Y-1.241 Z3.875 F100
G1 X17.516 Y-0.000 Z3.875 F100
G1 X17.516 Y-1.241 Z3.875 F100
G1 X17.644 Y-0.000 Z4.151 F100
G1 X17.644 Y-0.000 Z4.151 F100
G1 X17.516 Y-1.241 Z3.875 F100
G1 X17.644 Y-1.241 Z4.151 F100
G1 X17.644 Y-0.000 Z4.151 F100
G1 X17.644 Y-1.241 Z4.151 F100
G1 X17.723 Y-0.000 Z4.446 F100
G1 X17.723 Y-0.000 Z4.446 F100
G1 X17.644 Y-1.241 Z4.151 F100
G1 X17.723 Y-1.241 Z4.446 F100
G1 X17.723 Y-0.000 Z4.446 F100
G1 X17.723 Y-1.241 Z4.446 F100
G1 X17.750 Y-0.000 Z4.750 F100
G1 X17.750 Y-0.000 Z4.750 F100
G1 X17.723 Y-1.241 Z4.446 F100
G1 X17.750 Y-1.241 Z4.750 F100
G1 X17.750 Y-0.000 Z4.750 F100
G1 X17.750 Y-1.241 Z4.750 F100
G1 X17.723 Y-0.000 Z5.054 F100
G1 X17.723 Y-0.000 Z5.054 F100
G1 X17.750 Y-1.241 Z4.750 F100
G1 X17.723 Y-1.241 Z5.054 F100
G1 X17.723 Y-0.000 Z5.054 F100
G1 X17.723 Y-1.241 Z5.054 F100
G1 X17.644 Y-0.000 Z5.349 F100
G1 X17.644 Y-0.000 Z5.349 F100
G1 X17.723 Y-1.241 Z5.054 F100
G1 X17.644 Y-1.241 Z5.349 F100
G1 X17.644 Y-0.000 Z5.349 F100
G1 X17.644 Y-1.241 Z5.349 F100
G1 X17.516 Y-0.000 Z5.625 F100
G1 X17.516 Y-0.000 Z5.625 F100
G1 X17.644 Y-1.241 Z5.349 F100
G1 X17.516 Y-1.241 Z5.625 F100
G1 X17.516 Y-0.000 Z5.625 F100
G1 X17.516 Y-1.241 Z5.625 F100
G1 X17.341 Y-0.000 Z5.875 F100
G1 X17.341 Y-0.000 Z5.875 F100
G1 X17.516 Y-1.241 Z5.625 F100
G1 X17.341 Y-1.241 Z5.875 F100
G1 X17.341 Y-0.000 Z5.875 F100
G1 X17.341 Y-1.241 Z5.875 F100
G1 X17.125 Y-0.000 Z6.091 F100
G1 X17.125 Y-0.000 Z6.091 F100
G1 X17.341 Y-1.241 Z5.875 F100
G1 X17.125 Y-1.241 Z6.091 F100
G1 X17.125 Y-0.000 Z6.091 F100
G1 X17.125 Y-1.241 Z6.091 F100
G1 X16.875 Y-0.000 Z6.266 F100
G1 X16.875 Y-0.000 Z6.266 F100
G1 X17.125 Y-1.241 Z6.091 F100
G1 X16.875 Y-1.241 Z6.266 F100
G1 X16.875 Y-0.000 Z6.266 F100
G1 X16.875 Y-1.241 Z6.266 F100
G1 X16.599 Y-0.000 Z6.394 F100
G1 X16.599 Y-0.000 Z6.394 F100
G1 X16.875 Y-1.241 Z6.266 F100
G1 X16.599 Y-1.241 Z6.394 F100
G1 X16.599 Y-0.000 Z6.394 F100
G1 X16.599 Y-1.241 Z6.394 F100
G1 X16.304 Y-0.000 Z6.473 F100
G1 X16.304 Y-0.000 Z6.473 F100
G1 X16.599 Y-1.241 Z6.394 F100
G1 X16.304 Y-1.241 Z6.473 F100
G1 X3.500 Y-0.000 Z3.000 F100
G1 X3.500 Y-3.000 Z3.000 F100
G1 X3.717 Y0.000 Z3.019 F100
G1 X3.717 Y0.000 Z3.019 F100
G1 X3.500 Y-3.000 Z3.000 F100
G1 X3.717 Y-3.000 Z3.019 F100
G1 X3.717 Y0.000 Z3.019 F100
G1 X3.717 Y-3.000 Z3.019 F100
G1 X3.928 Y0.000 Z3.075 F100
G1 X3.928 Y0.000 Z3.075 F100
G1 X3.717 Y-3.000 Z3.019 F100
G1 X3.928 Y-3.000 Z3.075 F100
G1 X3.928 Y0.000 Z3.075 F100
G1 X3.928 Y-3.000 Z3.075 F100
G1 X4.125 Y0.000 Z3.167 F100
G1 X4.125 Y0.000 Z3.167 F100
G1 X3.928 Y-3.000 Z3.075 F100
G1 X4.125 Y-3.000 Z3.167 F100
G1 X4.125 Y0.000 Z3.167 F100
G1 X4.125 Y-3.000 Z3.167 F100
G1 X4.303 Y0.000 Z3.292 F100
G1 X4.303 Y0.000 Z3.292 F100
G1 X4.125 Y-3.000 Z3.167 F100
G1 X4.303 Y-3.000 Z3.292 F100
G1 X4.303 Y0.000 Z3.292 F100
G1 X4.303 Y-3.000 Z3.292 F100
G1 X4.458 Y-0.000 Z3.447 F100
G1 X4.458 Y-0.000 Z3.447 F100
G1 X4.303 Y-3.000 Z3.292 F100
G1 X4.458 Y-3.000 Z3.447 F100
G1 X4.458 Y-0.000 Z3.447 F100
G1 X4.458 Y-3.000 Z3.447 F100
G1 X4.583 Y-0.000 Z3.625 F100
G1 X4.583 Y-0.000 Z3.625 F100
G1 X4.458 Y-3.000 Z3.447 F100
G1 X4.583 Y-3.000 Z3.625 F100
G1 X4.583 Y-0.000 Z3.625 F100
G1 X4.583 Y-3.000 Z3.625 F100
G1 X4.675 Y-0.000 Z3.822 F100
G1 X4.675 Y-0.000 Z3.822 F100
G1 X4.583 Y-3.000 Z3.625 F100
G1 X4.675 Y-3.000 Z3.822 F100
G1 X4.675 Y-0.000 Z3.822 F100
G1 X4.675 Y-3.000 Z3.822 F100
G1 X4.731 Y-0.000 Z4.033 F100
G1 X4.731 Y-0.000 Z4.033 F100
G1 X4.675 Y-3.000 Z3.822 F100
G1 X4.731 Y-3.000 Z4.033 F100
G1 X4.731 Y-0.000 Z4.033 F100
G1 X4.731 Y-3.000 Z4.033 F100
G1 X4.750 Y0.000 Z4.250 F100
G1 X4.750 Y0.000 Z4.250 F100
G1 X4.731 Y-3.000 Z4.033 F100
G1 X4.750 Y-3.000 Z4.250 F100
G1 X4.750 Y-3.000 Z4.250 F100
G1 X4.750 Y-3.000 Z5.250 F100
G1 X4.750 Y0.000 Z4.250 F100
G1 X4.750 Y0.000 Z4.250 F100
G1 X4.750 Y-3.000 Z5.250 F100
G1 X4.750 Y0.000 Z5.250 F100
G1 X3.500 Y-3.000 Z6.500 F100
G1 X3.500 Y0.000 Z6.500 F100
G1 X3.717 Y-3.000 Z6.481 F100
G1 X3.717 Y-3.000 Z6.481 F100
G1 X3.500 Y0.000 Z6.500 F100
G1 X3.717 Y-0.000 Z6.481 F100
G1 X3.717 Y-3.000 Z6.481 F100
G1 X3.717 Y-0.000 Z6.481 F100
G1 X3.928 Y-3.000 Z6.425 F100
G1 X3.928 Y-3.000 Z6.425 F100
G1 X3.717 Y-0.000 Z6.481 F100
G1 X3.928 Y-0.000 Z6.425 F100
G1 X3.928 Y-3.000 Z6.425 F100
G1 X3.928 Y-0.000 Z6.425 F100
G1 X4.125 Y-3.000 Z6.333 F100
G1 X4.125 Y-3.000 Z6.333 F100
G1 X3.928 Y-0.000 Z6.425 F100
G1 X4.125 Y-0.000 Z6.333 F100
G1 X4.125 Y-3.000 Z6.333 F100
G1 X4.125 Y-0.000 Z6.333 F100
G1 X4.303 Y-3.000 Z6.208 F100
G1 X4.303 Y-3.000 Z6.208 F100
G1 X4.125 Y-0.000 Z6.333 F100
G1 X4.303 Y-0.000 Z6.208 F100
G1 X4.303 Y-3.000 Z6.208 F100
G1 X4.303 Y-0.000 Z6.208 F100
G1 X4.458 Y-3.000 Z6.053 F100
G1 X4.458 Y-3.000 Z6.053 F100
G1 X4.303 Y-0.000 Z6.208 F100
G1 X4.458 Y-0.000 Z6.053 F100
G1 X4.458 Y-3.000 Z6.053 F100
G1 X4.458 Y-0.000 Z6.053 F100
G1 X4.583 Y-3.000 Z5.875 F100
G1 X4.583 Y-3.000 Z5.875 F100
G1 X4.458 Y-0.000 Z6.053 F100
G1 X4.583 Y-0.000 Z5.875 F100
G1 X4.583 Y-3.000 Z5.875 F100
G1 X4.583 Y-0.000 Z5.875 F100
G1 X4.675 Y-3.000 Z5.678 F100
G1 X4.675 Y-3.000 Z5.678 F100
G1 X4.583 Y-0.000 Z5.875 F100
G1 X4.675 Y-0.000 Z5.678 F100
G1 X4.675 Y-3.000 Z5.678 F100
G1 X4.675 Y-0.000 Z5.678 F100
G1 X4.731 Y-3.000 Z5.467 F100
G1 X4.731 Y-3.000 Z5.467 F100
G1 X4.675 Y-0.000 Z5.678 F100
G1 X4.731 Y-0.000 Z5.467 F100
G1 X4.731 Y-3.000 Z5.467 F100
G1 X4.731 Y-0.000 Z5.467 F100
G1 X4.750 Y-3.000 Z5.250 F100
G1 X4.750 Y-3.000 Z5.250 F100
G1 X4.731 Y-0.000 Z5.467 F100
G1 X4.750 Y0.000 Z5.250 F100
G1 X-4.750 Y-3.000 Z5.250 F100
G1 X-4.750 Y0.000 Z5.250 F100
G1 X-4.731 Y-3.000 Z5.467 F100
G1 X-4.731 Y-3.000 Z5.467 F100
G1 X-4.750 Y0.000 Z5.250 F100
G1 X-4.731 Y-0.000 Z5.467 F100
G1 X-4.731 Y-3.000 Z5.467 F100
G1 X-4.731 Y-0.000 Z5.467 F100
G1 X-4.675 Y-3.000 Z5.678 F100
G1 X-4.675 Y-3.000 Z5.678 F100
G1 X-4.731 Y-0.000 Z5.467 F100
G1 X-4.675 Y-0.000 Z5.678 F100
G1 X-4.675 Y-3.000 Z5.678 F100
G1 X-4.675 Y-0.000 Z5.678 F100
G1 X-4.583 Y-3.000 Z5.875 F100
G1 X-4.583 Y-3.000 Z5.875 F100
G1 X-4.675 Y-0.000 Z5.678 F100
G1 X-4.583 Y-0.000 Z5.875 F100
G1 X-4.583 Y-3.000 Z5.875 F100
G1 X-4.583 Y-0.000 Z5.875 F100
G1 X-4.458 Y-3.000 Z6.053 F100
G1 X-4.458 Y-3.000 Z6.053 F100
G1 X-4.583 Y-0.000 Z5.875 F100
G1 X-4.458 Y-0.000 Z6.053 F100
G1 X-4.458 Y-3.000 Z6.053 F100
G1 X-4.458 Y-0.000 Z6.053 F100
G1 X-4.303 Y-3.000 Z6.208 F100
G1 X-4.303 Y-3.000 Z6.208 F100
G1 X-4.458 Y-0.000 Z6.053 F100
G1 X-4.303 Y-0.000 Z6.208 F100
G1 X-4.303 Y-3.000 Z6.208 F100
G1 X-4.303 Y-0.000 Z6.208 F100
G1 X-4.125 Y-3.000 Z6.333 F100
G1 X-4.125 Y-3.000 Z6.333 F100
G1 X-4.303 Y-0.000 Z6.208 F100
G1 X-4.125 Y-0.000 Z6.333 F100
G1 X-4.125 Y-3.000 Z6.333 F100
G1 X-4.125 Y-0.000 Z6.333 F100
G1 X-3.928 Y-3.000 Z6.425 F100
G1 X-3.928 Y-3.000 Z6.425 F100
G1 X-4.125 Y-0.000 Z6.333 F100
G1 X-3.928 Y-0.000 Z6.425 F100
G1 X-3.928 Y-3.000 Z6.425 F100
G1 X-3.928 Y-0.000 Z6.425 F100
G1 X-3.717 Y-3.000 Z6.481 F100
G1 X-3.717 Y-3.000 Z6.481 F100
G1 X-3.928 Y-0.000 Z6.425 F100
G1 X-3.717 Y-0.000 Z6.481 F100
G1 X-3.717 Y-3.000 Z6.481 F100
G1 X-3.717 Y-0.000 Z6.481 F100
G1 X-3.500 Y-3.000 Z6.500 F100
G1 X-3.500 Y-3.000 Z6.500 F100
G1 X-3.717 Y-0.000 Z6.481 F100
G1 X-3.500 Y0.000 Z6.500 F100
G1 X3.500 Y-3.000 Z6.500 F100
G1 X-3.500 Y-3.000 Z6.500 F100
G1 X3.500 Y0.000 Z6.500 F100
G1 X3.500 Y0.000 Z6.500 F100
G1 X-3.500 Y-3.000 Z6.500 F100
G1 X-3.500 Y0.000 Z6.500 F100
G1 X-3.500 Y-3.000 Z3.000 F100
G1 X-3.500 Y0.000 Z3.000 F100
G1 X-3.717 Y-3.000 Z3.019 F100
G1 X-3.717 Y-3.000 Z3.019 F100
G1 X-3.500 Y0.000 Z3.000 F100
G1 X-3.717 Y-0.000 Z3.019 F100
G1 X-3.717 Y-3.000 Z3.019 F100
G1 X-3.717 Y-0.000 Z3.019 F100
G1 X-3.928 Y-3.000 Z3.075 F100
G1 X-3.928 Y-3.000 Z3.075 F100
G1 X-3.717 Y-0.000 Z3.019 F100
G1 X-3.928 Y-0.000 Z3.075 F100
G1 X-3.928 Y-3.000 Z3.075 F100
G1 X-3.928 Y-0.000 Z3.075 F100
G1 X-4.125 Y-3.000 Z3.167 F100
G1 X-4.125 Y-3.000 Z3.167 F100
G1 X-3.928 Y-0.000 Z3.075 F100
G1 X-4.125 Y-0.000 Z3.167 F100
G1 X-4.125 Y-3.000 Z3.167 F100
G1 X-4.125 Y-0.000 Z3.167 F100
G1 X-4.303 Y-3.000 Z3.292 F100
G1 X-4.303 Y-3.000 Z3.292 F100
G1 X-4.125 Y-0.000 Z3.167 F100
G1 X-4.303 Y-0.000 Z3.292 F100
G1 X-4.303 Y-3.000 Z3.292 F100
G1 X-4.303 Y-0.000 Z3.292 F100
G1 X-4.458 Y-3.000 Z3.447 F100
G1 X-4.458 Y-3.000 Z3.447 F100
G1 X-4.303 Y-0.000 Z3.292 F100
G1 X-4.458 Y0.000 Z3.447 F100
G1 X-4.458 Y-3.000 Z3.447 F100
G1 X-4.458 Y0.000 Z3.447 F100
G1 X-4.583 Y-3.000 Z3.625 F100
G1 X-4.583 Y-3.000 Z3.625 F100
G1 X-4.458 Y0.000 Z3.447 F100
G1 X-4.583 Y0.000 Z3.625 F100
G1 X-4.583 Y-3.000 Z3.625 F100
G1 X-4.583 Y0.000 Z3.625 F100
G1 X-4.675 Y-3.000 Z3.822 F100
G1 X-4.675 Y-3.000 Z3.822 F100
G1 X-4.583 Y0.000 Z3.625 F100
G1 X-4.675 Y0.000 Z3.822 F100
G1 X-4.675 Y-3.000 Z3.822 F100
G1 X-4.675 Y0.000 Z3.822 F100
G1 X-4.731 Y-3.000 Z4.033 F100
G1 X-4.731 Y-3.000 Z4.033 F100
G1 X-4.675 Y0.000 Z3.822 F100
G1 X-4.731 Y0.000 Z4.033 F100
G1 X-4.731 Y-3.000 Z4.033 F100
G1 X-4.731 Y0.000 Z4.033 F100
G1 X-4.750 Y-3.000 Z4.250 F100
G1 X-4.750 Y-3.000 Z4.250 F100
G1 X-4.731 Y0.000 Z4.033 F100
G1 X-4.750 Y0.000 Z4.250 F100
G1 X-4.750 Y-3.000 Z5.250 F100
G1 X-4.750 Y-3.000 Z4.250 F100
G1 X-4.750 Y0.000 Z5.250 F100
G1 X-4.750 Y0.000 Z5.250 F100
G1 X-4.750 Y-3.000 Z4.250 F100
G1 X-4.750 Y0.000 Z4.250 F100
G1 X-8.436 Y0.000 Z4.915 F100
G1 X-8.450 Y0.000 Z4.750 F100
G1 X-14.250 Y-0.000 Z4.750 F100
G1 X-14.250 Y-0.000 Z4.750 F100
G1 X-8.450 Y0.000 Z4.750 F100
G1 X-8.436 Y0.000 Z4.585 F100
G1 X-14.250 Y-0.000 Z4.750 F100
G1 X-8.436 Y0.000 Z4.585 F100
G1 X-14.277 Y-0.000 Z4.446 F100
G1 X-14.277 Y-0.000 Z4.446 F100
G1 X-8.436 Y0.000 Z4.585 F100
G1 X-8.393 Y0.000 Z4.425 F100
G1 X-14.277 Y-0.000 Z4.446 F100
G1 X-8.393 Y0.000 Z4.425 F100
G1 X-14.356 Y-0.000 Z4.151 F100
G1 X-14.356 Y-0.000 Z4.151 F100
G1 X-8.393 Y0.000 Z4.425 F100
G1 X-8.323 Y0.000 Z4.275 F100
G1 X-14.356 Y-0.000 Z4.151 F100
G1 X-8.323 Y0.000 Z4.275 F100
G1 X-8.228 Y0.000 Z4.139 F100
G1 X-14.356 Y-0.000 Z4.151 F100
G1 X-8.228 Y0.000 Z4.139 F100
G1 X-9.900 Y0.000 Z3.000 F100
G1 X-9.900 Y0.000 Z3.000 F100
G1 X-8.228 Y0.000 Z4.139 F100
G1 X-8.111 Y0.000 Z4.022 F100
G1 X-9.900 Y0.000 Z3.000 F100
G1 X-8.111 Y0.000 Z4.022 F100
G1 X-7.975 Y0.000 Z3.927 F100
G1 X-9.900 Y0.000 Z3.000 F100
G1 X-7.975 Y0.000 Z3.927 F100
G1 X-8.900 Y0.000 Z3.000 F100
G1 X-8.900 Y0.000 Z3.000 F100
G1 X-7.975 Y0.000 Z3.927 F100
G1 X-7.825 Y0.000 Z3.857 F100
G1 X-8.900 Y0.000 Z3.000 F100
G1 X-7.825 Y0.000 Z3.857 F100
G1 X-7.665 Y0.000 Z3.814 F100
G1 X-7.665 Y0.000 Z3.814 F100
G1 X-7.500 Y0.000 Z3.800 F100
G1 X-8.900 Y0.000 Z3.000 F100
G1 X-8.900 Y0.000 Z3.000 F100
G1 X-7.500 Y0.000 Z3.800 F100
G1 X-7.335 Y0.000 Z3.814 F100
G1 X-8.900 Y0.000 Z3.000 F100
G1 X-7.335 Y0.000 Z3.814 F100
G1 X-4.303 Y-0.000 Z3.292 F100
G1 X-4.303 Y-0.000 Z3.292 F100
G1 X-7.335 Y0.000 Z3.814 F100
G1 X-4.458 Y0.000 Z3.447 F100
G1 X-4.458 Y0.000 Z3.447 F100
G1 X-7.335 Y0.000 Z3.814 F100
G1 X-7.175 Y0.000 Z3.857 F100
G1 X-4.458 Y0.000 Z3.447 F100
G1 X-7.175 Y0.000 Z3.857 F100
G1 X-4.583 Y0.000 Z3.625 F100
G1 X-4.583 Y0.000 Z3.625 F100
G1 X-7.175 Y0.000 Z3.857 F100
G1 X-7.025 Y0.000 Z3.927 F100
G1 X-4.583 Y0.000 Z3.625 F100
G1 X-7.025 Y0.000 Z3.927 F100
G1 X-4.675 Y0.000 Z3.822 F100
G1 X-4.675 Y0.000 Z3.822 F100
G1 X-7.025 Y0.000 Z3.927 F100
G1 X-6.889 Y0.000 Z4.022 F100
G1 X-4.675 Y0.000 Z3.822 F100
G1 X-6.889 Y0.000 Z4.022 F100
G1 X-4.731 Y0.000 Z4.033 F100
G1 X-4.731 Y0.000 Z4.033 F100
G1 X-6.889 Y0.000 Z4.022 F100
G1 X-6.772 Y0.000 Z4.139 F100
G1 X-4.731 Y0.000 Z4.033 F100
G1 X-6.772 Y0.000 Z4.139 F100
G1 X-6.677 Y0.000 Z4.275 F100
G1 X-4.731 Y0.000 Z4.033 F100
G1 X-6.677 Y0.000 Z4.275 F100
G1 X-4.750 Y0.000 Z4.250 F100
G1 X-4.750 Y0.000 Z4.250 F100
G1 X-6.677 Y0.000 Z4.275 F100
G1 X-6.607 Y0.000 Z4.425 F100
G1 X-4.750 Y0.000 Z4.250 F100
G1 X-6.607 Y0.000 Z4.425 F100
G1 X-6.564 Y0.000 Z4.585 F100
G1 X-6.564 Y0.000 Z4.585 F100
G1 X-6.550 Y0.000 Z4.750 F100
G1 X-4.750 Y0.000 Z4.250 F100
G1 X-4.750 Y0.000 Z4.250 F100
G1 X-6.550 Y0.000 Z4.750 F100
G1 X-4.750 Y0.000 Z5.250 F100
G1 X-4.750 Y0.000 Z5.250 F100
G1 X-6.550 Y0.000 Z4.750 F100
G1 X-6.564 Y0.000 Z4.915 F100
G1 X-4.750 Y0.000 Z5.250 F100
G1 X-6.564 Y0.000 Z4.915 F100
G1 X-6.607 Y0.000 Z5.075 F100
G1 X-6.607 Y0.000 Z5.075 F100
G1 X-6.677 Y0.000 Z5.225 F100
G1 X-4.750 Y0.000 Z5.250 F100
G1 X-4.750 Y0.000 Z5.250 F100
G1 X-6.677 Y0.000 Z5.225 F100
G1 X-4.731 Y-0.000 Z5.467 F100
G1 X-4.731 Y-0.000 Z5.467 F100
G1 X-6.677 Y0.000 Z5.225 F100
G1 X-6.772 Y0.000 Z5.361 F100
G1 X-4.731 Y-0.000 Z5.467 F100
G1 X-6.772 Y0.000 Z5.361 F100
G1 X-6.889 Y0.000 Z5.478 F100
G1 X-4.731 Y-0.000 Z5.467 F100
G1 X-6.889 Y0.000 Z5.478 F100
G1 X-4.675 Y-0.000 Z5.678 F100
G1 X-4.675 Y-0.000 Z5.678 F100
G1 X-6.889 Y0.000 Z5.478 F100
G1 X-7.025 Y0.000 Z5.573 F100
G1 X-4.675 Y-0.000 Z5.678 F100
G1 X-7.025 Y0.000 Z5.573 F100
G1 X-4.583 Y-0.000 Z5.875 F100
G1 X-4.583 Y-0.000 Z5.875 F100
G1 X-7.025 Y0.000 Z5.573 F100
G1 X-7.175 Y0.000 Z5.643 F100
G1 X-4.583 Y-0.000 Z5.875 F100
G1 X-7.175 Y0.000 Z5.643 F100
G1 X-4.458 Y-0.000 Z6.053 F100
G1 X-4.458 Y-0.000 Z6.053 F100
G1 X-7.175 Y0.000 Z5.643 F100
G1 X-7.335 Y0.000 Z5.686 F100
G1 X-4.458 Y-0.000 Z6.053 F100
G1 X-7.335 Y0.000 Z5.686 F100
G1 X-4.303 Y-0.000 Z6.208 F100
G1 X-4.303 Y-0.000 Z6.208 F100
G1 X-7.335 Y0.000 Z5.686 F100
G1 X-7.500 Y0.000 Z5.700 F100
G1 X-4.303 Y-0.000 Z6.208 F100
G1 X-7.500 Y0.000 Z5.700 F100
G1 X-4.125 Y-0.000 Z6.333 F100
G1 X-4.125 Y-0.000 Z6.333 F100
G1 X-7.500 Y0.000 Z5.700 F100
G1 X-3.928 Y-0.000 Z6.425 F100
G1 X-3.928 Y-0.000 Z6.425 F100
G1 X-7.500 Y0.000 Z5.700 F100
G1 X-7.665 Y0.000 Z5.686 F100
G1 X-3.928 Y-0.000 Z6.425 F100
G1 X-7.665 Y0.000 Z5.686 F100
G1 X-15.401 Y-0.000 Z6.394 F100
G1 X-15.401 Y-0.000 Z6.394 F100
G1 X-7.665 Y0.000 Z5.686 F100
G1 X-15.125 Y-0.000 Z6.266 F100
G1 X-15.125 Y-0.000 Z6.266 F100
G1 X-7.665 Y0.000 Z5.686 F100
G1 X-7.825 Y0.000 Z5.643 F100
G1 X-15.125 Y-0.000 Z6.266 F100
G1 X-7.825 Y0.000 Z5.643 F100
G1 X-14.875 Y-0.000 Z6.091 F100
G1 X-14.875 Y-0.000 Z6.091 F100
G1 X-7.825 Y0.000 Z5.643 F100
G1 X-14.659 Y-0.000 Z5.875 F100
G1 X-14.659 Y-0.000 Z5.875 F100
G1 X-7.825 Y0.000 Z5.643 F100
G1 X-7.975 Y0.000 Z5.573 F100
G1 X-14.659 Y-0.000 Z5.875 F100
G1 X-7.975 Y0.000 Z5.573 F100
G1 X-8.111 Y0.000 Z5.478 F100
G1 X-14.659 Y-0.000 Z5.875 F100
G1 X-8.111 Y0.000 Z5.478 F100
G1 X-14.484 Y-0.000 Z5.625 F100
G1 X-14.484 Y-0.000 Z5.625 F100
G1 X-8.111 Y0.000 Z5.478 F100
G1 X-8.228 Y0.000 Z5.361 F100
G1 X-14.484 Y-0.000 Z5.625 F100
G1 X-8.228 Y0.000 Z5.361 F100
G1 X-14.356 Y-0.000 Z5.349 F100
G1 X-14.356 Y-0.000 Z5.349 F100
G1 X-8.228 Y0.000 Z5.361 F100
G1 X-8.323 Y0.000 Z5.225 F100
G1 X-14.356 Y-0.000 Z5.349 F100
G1 X-8.323 Y0.000 Z5.225 F100
G1 X-8.393 Y0.000 Z5.075 F100
G1 X-14.356 Y-0.000 Z5.349 F100
G1 X-8.393 Y0.000 Z5.075 F100
G1 X-14.277 Y-0.000 Z5.054 F100
G1 X-14.277 Y-0.000 Z5.054 F100
G1 X-8.393 Y0.000 Z5.075 F100
G1 X-8.436 Y0.000 Z4.915 F100
G1 X-14.277 Y-0.000 Z5.054 F100
G1 X-8.436 Y0.000 Z4.915 F100
G1 X-14.250 Y-0.000 Z4.750 F100
G1 X-16.304 Y-0.000 Z6.473 F100
G1 X-21.614 Y-0.000 Z8.285 F100
G1 X-16.000 Y-0.000 Z6.500 F100
G1 X-16.000 Y-0.000 Z6.500 F100
G1 X-21.614 Y-0.000 Z8.285 F100
G1 X-21.236 Y-0.000 Z8.917 F100
G1 X-16.000 Y-0.000 Z6.500 F100
G1 X-21.236 Y-0.000 Z8.917 F100
G1 X-20.798 Y-0.000 Z9.508 F100
G1 X-21.614 Y-0.000 Z8.285 F100
G1 X-16.304 Y-0.000 Z6.473 F100
G1 X-21.929 Y-0.000 Z7.620 F100
G1 X-21.929 Y-0.000 Z7.620 F100
G1 X-16.304 Y-0.000 Z6.473 F100
G1 X-16.599 Y-0.000 Z6.394 F100
G1 X-21.929 Y-0.000 Z7.620 F100
G1 X-16.599 Y-0.000 Z6.394 F100
G1 X-22.177 Y-0.000 Z6.927 F100
G1 X-22.177 Y-0.000 Z6.927 F100
G1 X-16.599 Y-0.000 Z6.394 F100
G1 X-16.875 Y-0.000 Z6.266 F100
G1 X-22.177 Y-0.000 Z6.927 F100
G1 X-16.875 Y-0.000 Z6.266 F100
G1 X-17.125 Y-0.000 Z6.091 F100
G1 X-22.177 Y-0.000 Z6.927 F100
G1 X-17.125 Y-0.000 Z6.091 F100
G1 X-22.356 Y-0.000 Z6.213 F100
G1 X-22.356 Y-0.000 Z6.213 F100
G1 X-17.125 Y-0.000 Z6.091 F100
G1 X-17.341 Y-0.000 Z5.875 F100
G1 X-22.356 Y-0.000 Z6.213 F100
G1 X-17.341 Y-0.000 Z5.875 F100
G1 X-17.516 Y-0.000 Z5.625 F100
G1 X-22.356 Y-0.000 Z6.213 F100
G1 X-17.516 Y-0.000 Z5.625 F100
G1 X-22.464 Y-0.000 Z5.485 F100
G1 X-22.464 Y-0.000 Z5.485 F100
G1 X-17.516 Y-0.000 Z5.625 F100
G1 X-17.644 Y-0.000 Z5.349 F100
G1 X-22.464 Y-0.000 Z5.485 F100
G1 X-17.644 Y-0.000 Z5.349 F100
G1 X-17.723 Y-0.000 Z5.054 F100
G1 X-22.464 Y-0.000 Z5.485 F100
G1 X-17.723 Y-0.000 Z5.054 F100
G1 X-22.500 Y-0.000 Z4.750 F100
G1 X-22.500 Y-0.000 Z4.750 F100
G1 X-17.723 Y-0.000 Z5.054 F100
G1 X-17.750 Y-0.000 Z4.750 F100
G1 X-22.500 Y-0.000 Z4.750 F100
G1 X-17.750 Y-0.000 Z4.750 F100
G1 X-17.723 Y-0.000 Z4.446 F100
G1 X-22.500 Y-0.000 Z4.750 F100
G1 X-17.723 Y-0.000 Z4.446 F100
G1 X-22.464 Y-0.000 Z4.015 F100
G1 X-22.464 Y-0.000 Z4.015 F100
G1 X-17.723 Y-0.000 Z4.446 F100
G1 X-17.644 Y-0.000 Z4.151 F100
G1 X-22.464 Y-0.000 Z4.015 F100
G1 X-17.644 Y-0.000 Z4.151 F100
G1 X-17.516 Y-0.000 Z3.875 F100
G1 X-22.464 Y-0.000 Z4.015 F100
G1 X-17.516 Y-0.000 Z3.875 F100
G1 X-22.356 Y-0.000 Z3.287 F100
G1 X-22.356 Y-0.000 Z3.287 F100
G1 X-17.516 Y-0.000 Z3.875 F100
G1 X-17.341 Y-0.000 Z3.625 F100
G1 X-22.356 Y-0.000 Z3.287 F100
G1 X-17.341 Y-0.000 Z3.625 F100
G1 X-17.125 Y-0.000 Z3.409 F100
G1 X-22.356 Y-0.000 Z3.287 F100
G1 X-17.125 Y-0.000 Z3.409 F100
G1 X-22.177 Y-0.000 Z2.573 F100
G1 X-22.177 Y-0.000 Z2.573 F100
G1 X-17.125 Y-0.000 Z3.409 F100
G1 X-16.875 Y-0.000 Z3.234 F100
G1 X-22.177 Y-0.000 Z2.573 F100
G1 X-16.875 Y-0.000 Z3.234 F100
G1 X-16.599 Y-0.000 Z3.106 F100
G1 X-22.177 Y-0.000 Z2.573 F100
G1 X-16.599 Y-0.000 Z3.106 F100
G1 X-21.929 Y-0.000 Z1.880 F100
G1 X-21.929 Y-0.000 Z1.880 F100
G1 X-16.599 Y-0.000 Z3.106 F100
G1 X-16.304 Y-0.000 Z3.027 F100
G1 X-21.929 Y-0.000 Z1.880 F100
G1 X-16.304 Y-0.000 Z3.027 F100
G1 X-21.614 Y-0.000 Z1.215 F100
G1 X-21.614 Y-0.000 Z1.215 F100
G1 X-16.304 Y-0.000 Z3.027 F100
G1 X-16.000 Y-0.000 Z3.000 F100
G1 X-21.614 Y-0.000 Z1.215 F100
G1 X-16.000 Y-0.000 Z3.000 F100
G1 X-21.236 Y-0.000 Z0.583 F100
G1 X-21.236 Y-0.000 Z0.583 F100
G1 X-16.000 Y-0.000 Z3.000 F100
G1 X-9.900 Y0.000 Z0.000 F100
G1 X-21.236 Y-0.000 Z0.583 F100
G1 X-9.900 Y0.000 Z0.000 F100
G1 X-20.798 Y-0.000 Z-0.008 F100
G1 X-20.798 Y-0.000 Z-0.008 F100
G1 X-9.900 Y0.000 Z0.000 F100
G1 X-20.303 Y-0.000 Z-0.553 F100
G1 X-20.303 Y-0.000 Z-0.553 F100
G1 X-9.900 Y0.000 Z0.000 F100
G1 X-19.758 Y-0.000 Z-1.048 F100
G1 X-19.758 Y-0.000 Z-1.048 F100
G1 X-9.900 Y0.000 Z0.000 F100
G1 X-19.167 Y-0.000 Z-1.486 F100
G1 X-19.167 Y-0.000 Z-1.486 F100
G1 X-9.900 Y0.000 Z0.000 F100
G1 X-18.535 Y-0.000 Z-1.864 F100
G1 X-18.535 Y-0.000 Z-1.864 F100
G1 X-9.900 Y0.000 Z0.000 F100
G1 X-17.870 Y-0.000 Z-2.179 F100
G1 X-17.870 Y-0.000 Z-2.179 F100
G1 X-9.900 Y0.000 Z0.000 F100
G1 X-15.000 Y0.000 Z-2.750 F100
G1 X-17.870 Y-0.000 Z-2.179 F100
G1 X-15.000 Y0.000 Z-2.750 F100
G1 X-17.177 Y-0.000 Z-2.427 F100
G1 X-17.177 Y-0.000 Z-2.427 F100
G1 X-15.000 Y0.000 Z-2.750 F100
G1 X-16.463 Y-0.000 Z-2.606 F100
G1 X-16.463 Y-0.000 Z-2.606 F100
G1 X-15.000 Y0.000 Z-2.750 F100
G1 X-15.735 Y-0.000 Z-2.714 F100
G1 X-16.000 Y-0.000 Z3.000 F100
G1 X-15.696 Y-0.000 Z3.027 F100
G1 X-9.900 Y0.000 Z0.000 F100
G1 X-9.900 Y0.000 Z0.000 F100
G1 X-15.696 Y-0.000 Z3.027 F100
G1 X-9.900 Y0.000 Z3.000 F100
G1 X-9.900 Y0.000 Z3.000 F100
G1 X-15.696 Y-0.000 Z3.027 F100
G1 X-15.401 Y-0.000 Z3.106 F100
G1 X-9.900 Y0.000 Z3.000 F100
G1 X-15.401 Y-0.000 Z3.106 F100
G1 X-15.125 Y-0.000 Z3.234 F100
G1 X-15.125 Y-0.000 Z3.234 F100
G1 X-14.875 Y-0.000 Z3.409 F100
G1 X-9.900 Y0.000 Z3.000 F100
G1 X-9.900 Y0.000 Z3.000 F100
G1 X-14.875 Y-0.000 Z3.409 F100
G1 X-14.659 Y-0.000 Z3.625 F100
G1 X-9.900 Y0.000 Z3.000 F100
G1 X-14.659 Y-0.000 Z3.625 F100
G1 X-14.484 Y-0.000 Z3.875 F100
G1 X-14.484 Y-0.000 Z3.875 F100
G1 X-14.356 Y-0.000 Z4.151 F100
G1 X-9.900 Y0.000 Z3.000 F100
G1 X-15.401 Y-0.000 Z6.394 F100
G1 X-15.696 Y-0.000 Z6.473 F100
G1 X-3.928 Y-0.000 Z6.425 F100
G1 X-3.928 Y-0.000 Z6.425 F100
G1 X-15.696 Y-0.000 Z6.473 F100
G1 X-3.717 Y-0.000 Z6.481 F100
G1 X-3.717 Y-0.000 Z6.481 F100
G1 X-15.696 Y-0.000 Z6.473 F100
G1 X-19.758 Y-0.000 Z10.548 F100
G1 X-3.717 Y-0.000 Z6.481 F100
G1 X-19.758 Y-0.000 Z10.548 F100
G1 X-15.000 Y0.000 Z12.250 F100
G1 X-15.000 Y0.000 Z12.250 F100
G1 X-19.758 Y-0.000 Z10.548 F100
G1 X-19.167 Y-0.000 Z10.986 F100
G1 X-15.000 Y0.000 Z12.250 F100
G1 X-19.167 Y-0.000 Z10.986 F100
G1 X-18.535 Y-0.000 Z11.364 F100
G1 X-16.000 Y-0.000 Z6.500 F100
G1 X-20.798 Y-0.000 Z9.508 F100
G1 X-15.696 Y-0.000 Z6.473 F100
G1 X-15.696 Y-0.000 Z6.473 F100
G1 X-20.798 Y-0.000 Z9.508 F100
G1 X-20.303 Y-0.000 Z10.053 F100
G1 X-15.696 Y-0.000 Z6.473 F100
G1 X-20.303 Y-0.000 Z10.053 F100
G1 X-19.758 Y-0.000 Z10.548 F100
G1 X15.696 Y-0.000 Z6.473 F100
G1 X20.798 Y-0.000 Z9.508 F100
G1 X16.000 Y-0.000 Z6.500 F100
G1 X16.000 Y-0.000 Z6.500 F100
G1 X20.798 Y-0.000 Z9.508 F100
G1 X21.236 Y-0.000 Z8.917 F100
G1 X16.000 Y-0.000 Z6.500 F100
G1 X21.236 Y-0.000 Z8.917 F100
G1 X21.614 Y-0.000 Z8.285 F100
G1 X15.401 Y-0.000 Z6.394 F100
G1 X3.928 Y-0.000 Z6.425 F100
G1 X15.696 Y-0.000 Z6.473 F100
G1 X15.696 Y-0.000 Z6.473 F100
G1 X3.928 Y-0.000 Z6.425 F100
G1 X3.717 Y-0.000 Z6.481 F100
G1 X15.696 Y-0.000 Z6.473 F100
G1 X3.717 Y-0.000 Z6.481 F100
G1 X19.758 Y-0.000 Z10.548 F100
G1 X19.758 Y-0.000 Z10.548 F100
G1 X3.717 Y-0.000 Z6.481 F100
G1 X15.000 Y0.000 Z12.250 F100
G1 X19.758 Y-0.000 Z10.548 F100
G1 X15.000 Y0.000 Z12.250 F100
G1 X19.167 Y-0.000 Z10.986 F100
G1 X19.167 Y-0.000 Z10.986 F100
G1 X15.000 Y0.000 Z12.250 F100
G1 X18.535 Y-0.000 Z11.364 F100
G1 X18.535 Y-0.000 Z11.364 F100
G1 X15.000 Y0.000 Z12.250 F100
G1 X17.870 Y-0.000 Z11.679 F100
G1 X17.870 Y-0.000 Z11.679 F100
G1 X15.000 Y0.000 Z12.250 F100
G1 X17.177 Y-0.000 Z11.927 F100
G1 X17.177 Y-0.000 Z11.927 F100
G1 X15.000 Y0.000 Z12.250 F100
G1 X16.463 Y-0.000 Z12.106 F100
G1 X16.463 Y-0.000 Z12.106 F100
G1 X15.000 Y0.000 Z12.250 F100
G1 X15.735 Y-0.000 Z12.214 F100
G1 X3.928 Y-0.000 Z6.425 F100
G1 X15.401 Y-0.000 Z6.394 F100
G1 X4.125 Y-0.000 Z6.333 F100
G1 X4.125 Y-0.000 Z6.333 F100
G1 X15.401 Y-0.000 Z6.394 F100
G1 X15.125 Y-0.000 Z6.266 F100
G1 X4.125 Y-0.000 Z6.333 F100
G1 X15.125 Y-0.000 Z6.266 F100
G1 X4.303 Y-0.000 Z6.208 F100
G1 X4.303 Y-0.000 Z6.208 F100
G1 X15.125 Y-0.000 Z6.266 F100
G1 X14.875 Y-0.000 Z6.091 F100
G1 X4.303 Y-0.000 Z6.208 F100
G1 X14.875 Y-0.000 Z6.091 F100
G1 X4.458 Y-0.000 Z6.053 F100
G1 X4.458 Y-0.000 Z6.053 F100
G1 X14.875 Y-0.000 Z6.091 F100
G1 X14.659 Y-0.000 Z5.875 F100
G1 X4.458 Y-0.000 Z6.053 F100
G1 X14.659 Y-0.000 Z5.875 F100
G1 X4.583 Y-0.000 Z5.875 F100
G1 X4.583 Y-0.000 Z5.875 F100
G1 X14.659 Y-0.000 Z5.875 F100
G1 X14.484 Y-0.000 Z5.625 F100
G1 X4.583 Y-0.000 Z5.875 F100
G1 X14.484 Y-0.000 Z5.625 F100
G1 X4.675 Y-0.000 Z5.678 F100
G1 X4.675 Y-0.000 Z5.678 F100
G1 X14.484 Y-0.000 Z5.625 F100
G1 X14.356 Y-0.000 Z5.349 F100
G1 X4.675 Y-0.000 Z5.678 F100
G1 X14.356 Y-0.000 Z5.349 F100
G1 X4.731 Y-0.000 Z5.467 F100
G1 X4.731 Y-0.000 Z5.467 F100
G1 X14.356 Y-0.000 Z5.349 F100
G1 X4.750 Y0.000 Z5.250 F100
G1 X4.750 Y0.000 Z5.250 F100
G1 X14.356 Y-0.000 Z5.349 F100
G1 X14.277 Y-0.000 Z5.054 F100
G1 X4.750 Y0.000 Z5.250 F100
G1 X14.277 Y-0.000 Z5.054 F100
G1 X14.250 Y-0.000 Z4.750 F100
G1 X14.277 Y-0.000 Z4.446 F100
G1 X9.900 Y0.000 Z3.000 F100
G1 X14.250 Y-0.000 Z4.750 F100
G1 X14.250 Y-0.000 Z4.750 F100
G1 X9.900 Y0.000 Z3.000 F100
G1 X4.750 Y0.000 Z4.250 F100
G1 X14.250 Y-0.000 Z4.750 F100
G1 X4.750 Y0.000 Z4.250 F100
G1 X4.750 Y0.000 Z5.250 F100
G1 X14.277 Y-0.000 Z4.446 F100
G1 X14.356 Y-0.000 Z4.151 F100
G1 X9.900 Y0.000 Z3.000 F100
G1 X9.900 Y0.000 Z3.000 F100
G1 X14.356 Y-0.000 Z4.151 F100
G1 X14.484 Y-0.000 Z3.875 F100
G1 X9.900 Y0.000 Z3.000 F100
G1 X14.484 Y-0.000 Z3.875 F100
G1 X14.659 Y-0.000 Z3.625 F100
G1 X14.659 Y-0.000 Z3.625 F100
G1 X14.875 Y-0.000 Z3.409 F100
G1 X9.900 Y0.000 Z3.000 F100
G1 X9.900 Y0.000 Z3.000 F100
G1 X14.875 Y-0.000 Z3.409 F100
G1 X15.125 Y-0.000 Z3.234 F100
G1 X9.900 Y0.000 Z3.000 F100
G1 X15.125 Y-0.000 Z3.234 F100
G1 X15.401 Y-0.000 Z3.106 F100
G1 X15.401 Y-0.000 Z3.106 F100
G1 X15.696 Y-0.000 Z3.027 F100
G1 X9.900 Y0.000 Z3.000 F100
G1 X9.900 Y0.000 Z3.000 F100
G1 X15.696 Y-0.000 Z3.027 F100
G1 X9.900 Y0.000 Z0.000 F100
G1 X9.900 Y0.000 Z0.000 F100
G1 X15.696 Y-0.000 Z3.027 F100
G1 X16.000 Y-0.000 Z3.000 F100
G1 X9.900 Y0.000 Z0.000 F100
G1 X16.000 Y-0.000 Z3.000 F100
G1 X21.236 Y-0.000 Z0.583 F100
G1 X21.236 Y-0.000 Z0.583 F100
G1 X16.000 Y-0.000 Z3.000 F100
G1 X21.614 Y-0.000 Z1.215 F100
G1 X21.614 Y-0.000 Z1.215 F100
G1 X16.000 Y-0.000 Z3.000 F100
G1 X16.304 Y-0.000 Z3.027 F100
G1 X21.614 Y-0.000 Z1.215 F100
G1 X16.304 Y-0.000 Z3.027 F100
G1 X21.929 Y-0.000 Z1.880 F100
G1 X21.929 Y-0.000 Z1.880 F100
G1 X16.304 Y-0.000 Z3.027 F100
G1 X16.599 Y-0.000 Z3.106 F100
G1 X21.929 Y-0.000 Z1.880 F100
G1 X16.599 Y-0.000 Z3.106 F100
G1 X22.177 Y-0.000 Z2.573 F100
G1 X22.177 Y-0.000 Z2.573 F100
G1 X16.599 Y-0.000 Z3.106 F100
G1 X16.875 Y-0.000 Z3.234 F100
G1 X22.177 Y-0.000 Z2.573 F100
G1 X16.875 Y-0.000 Z3.234 F100
G1 X17.125 Y-0.000 Z3.409 F100
G1 X22.177 Y-0.000 Z2.573 F100
G1 X17.125 Y-0.000 Z3.409 F100
G1 X22.356 Y-0.000 Z3.287 F100
G1 X22.356 Y-0.000 Z3.287 F100
G1 X17.125 Y-0.000 Z3.409 F100
G1 X17.341 Y-0.000 Z3.625 F100
G1 X22.356 Y-0.000 Z3.287 F100
G1 X17.341 Y-0.000 Z3.625 F100
G1 X17.516 Y-0.000 Z3.875 F100
G1 X22.356 Y-0.000 Z3.287 F100
G1 X17.516 Y-0.000 Z3.875 F100
G1 X22.464 Y-0.000 Z4.015 F100
G1 X22.464 Y-0.000 Z4.015 F100
G1 X17.516 Y-0.000 Z3.875 F100
G1 X17.644 Y-0.000 Z4.151 F100
G1 X22.464 Y-0.000 Z4.015 F100
G1 X17.644 Y-0.000 Z4.151 F100
G1 X17.723 Y-0.000 Z4.446 F100
G1 X22.464 Y-0.000 Z4.015 F100
G1 X17.723 Y-0.000 Z4.446 F100
G1 X22.500 Y-0.000 Z4.750 F100
G1 X22.500 Y-0.000 Z4.750 F100
G1 X17.723 Y-0.000 Z4.446 F100
G1 X17.750 Y-0.000 Z4.750 F100
G1 X22.500 Y-0.000 Z4.750 F100
G1 X17.750 Y-0.000 Z4.750 F100
G1 X17.723 Y-0.000 Z5.054 F100
G1 X22.500 Y-0.000 Z4.750 F100
G1 X17.723 Y-0.000 Z5.054 F100
G1 X22.464 Y-0.000 Z5.485 F100
G1 X22.464 Y-0.000 Z5.485 F100
G1 X17.723 Y-0.000 Z5.054 F100
G1 X17.644 Y-0.000 Z5.349 F100
G1 X22.464 Y-0.000 Z5.485 F100
G1 X17.644 Y-0.000 Z5.349 F100
G1 X17.516 Y-0.000 Z5.625 F100
G1 X22.464 Y-0.000 Z5.485 F100
G1 X17.516 Y-0.000 Z5.625 F100
G1 X22.356 Y-0.000 Z6.213 F100
G1 X22.356 Y-0.000 Z6.213 F100
G1 X17.516 Y-0.000 Z5.625 F100
G1 X17.341 Y-0.000 Z5.875 F100
G1 X22.356 Y-0.000 Z6.213 F100
G1 X17.341 Y-0.000 Z5.875 F100
G1 X17.125 Y-0.000 Z6.091 F100
G1 X22.356 Y-0.000 Z6.213 F100
G1 X17.125 Y-0.000 Z6.091 F100
G1 X22.177 Y-0.000 Z6.927 F100
G1 X22.177 Y-0.000 Z6.927 F100
G1 X17.125 Y-0.000 Z6.091 F100
G1 X16.875 Y-0.000 Z6.266 F100
G1 X22.177 Y-0.000 Z6.927 F100
G1 X16.875 Y-0.000 Z6.266 F100
G1 X16.599 Y-0.000 Z6.394 F100
G1 X22.177 Y-0.000 Z6.927 F100
G1 X16.599 Y-0.000 Z6.394 F100
G1 X21.929 Y-0.000 Z7.620 F100
G1 X21.929 Y-0.000 Z7.620 F100
G1 X16.599 Y-0.000 Z6.394 F100
G1 X16.304 Y-0.000 Z6.473 F100
G1 X21.929 Y-0.000 Z7.620 F100
G1 X16.304 Y-0.000 Z6.473 F100
G1 X21.614 Y-0.000 Z8.285 F100
G1 X21.614 Y-0.000 Z8.285 F100
G1 X16.304 Y-0.000 Z6.473 F100
G1 X16.000 Y-0.000 Z6.500 F100
G1 X-18.535 Y-0.000 Z11.364 F100
G1 X-17.870 Y-0.000 Z11.679 F100
G1 X-15.000 Y0.000 Z12.250 F100
G1 X-15.000 Y0.000 Z12.250 F100
G1 X-17.870 Y-0.000 Z11.679 F100
G1 X-17.177 Y-0.000 Z11.927 F100
G1 X-15.000 Y0.000 Z12.250 F100
G1 X-17.177 Y-0.000 Z11.927 F100
G1 X-16.463 Y-0.000 Z12.106 F100
G1 X-16.463 Y-0.000 Z12.106 F100
G1 X-15.735 Y-0.000 Z12.214 F100
G1 X-15.000 Y0.000 Z12.250 F100
G1 X-3.717 Y-0.000 Z6.481 F100
G1 X-15.000 Y0.000 Z12.250 F100
G1 X-3.500 Y0.000 Z6.500 F100
G1 X-3.500 Y0.000 Z6.500 F100
G1 X-15.000 Y0.000 Z12.250 F100
G1 X15.000 Y0.000 Z12.250 F100
G1 X-3.500 Y0.000 Z6.500 F100
G1 X15.000 Y0.000 Z12.250 F100
G1 X3.500 Y0.000 Z6.500 F100
G1 X3.500 Y0.000 Z6.500 F100
G1 X15.000 Y0.000 Z12.250 F100
G1 X3.717 Y-0.000 Z6.481 F100
G1 X19.758 Y-0.000 Z10.548 F100
G1 X20.303 Y-0.000 Z10.053 F100
G1 X15.696 Y-0.000 Z6.473 F100
G1 X15.696 Y-0.000 Z6.473 F100
G1 X20.303 Y-0.000 Z10.053 F100
G1 X20.798 Y-0.000 Z9.508 F100
G1 X21.236 Y-0.000 Z0.583 F100
G1 X20.798 Y-0.000 Z-0.008 F100
G1 X9.900 Y0.000 Z0.000 F100
G1 X9.900 Y0.000 Z0.000 F100
G1 X20.798 Y-0.000 Z-0.008 F100
G1 X20.303 Y-0.000 Z-0.553 F100
G1 X9.900 Y0.000 Z0.000 F100
G1 X20.303 Y-0.000 Z-0.553 F100
G1 X19.758 Y-0.000 Z-1.048 F100
G1 X19.758 Y-0.000 Z-1.048 F100
G1 X19.167 Y-0.000 Z-1.486 F100
G1 X9.900 Y0.000 Z0.000 F100
G1 X9.900 Y0.000 Z0.000 F100
G1 X19.167 Y-0.000 Z-1.486 F100
G1 X18.535 Y-0.000 Z-1.864 F100
G1 X9.900 Y0.000 Z0.000 F100
G1 X18.535 Y-0.000 Z-1.864 F100
G1 X17.870 Y-0.000 Z-2.179 F100
G1 X9.900 Y0.000 Z0.000 F100
G1 X17.870 Y-0.000 Z-2.179 F100
G1 X15.000 Y0.000 Z-2.750 F100
G1 X15.000 Y0.000 Z-2.750 F100
G1 X17.870 Y-0.000 Z-2.179 F100
G1 X17.177 Y-0.000 Z-2.427 F100
G1 X15.000 Y0.000 Z-2.750 F100
G1 X17.177 Y-0.000 Z-2.427 F100
G1 X16.463 Y-0.000 Z-2.606 F100
G1 X16.463 Y-0.000 Z-2.606 F100
G1 X15.735 Y-0.000 Z-2.714 F100
G1 X15.000 Y0.000 Z-2.750 F100
G1 X15.000 Y0.000 Z-2.750 F100
G1 X-15.000 Y0.000 Z-2.750 F100
G1 X9.900 Y0.000 Z0.000 F100
G1 X9.900 Y0.000 Z0.000 F100
G1 X-15.000 Y0.000 Z-2.750 F100
G1 X-9.900 Y0.000 Z0.000 F100
G1 X9.900 Y0.000 Z3.000 F100
G1 X8.900 Y0.000 Z3.000 F100
G1 X4.750 Y0.000 Z4.250 F100
G1 X4.750 Y0.000 Z4.250 F100
G1 X8.900 Y0.000 Z3.000 F100
G1 X4.731 Y-0.000 Z4.033 F100
G1 X4.731 Y-0.000 Z4.033 F100
G1 X8.900 Y0.000 Z3.000 F100
G1 X4.675 Y-0.000 Z3.822 F100
G1 X4.675 Y-0.000 Z3.822 F100
G1 X8.900 Y0.000 Z3.000 F100
G1 X4.583 Y-0.000 Z3.625 F100
G1 X4.583 Y-0.000 Z3.625 F100
G1 X8.900 Y0.000 Z3.000 F100
G1 X4.458 Y-0.000 Z3.447 F100
G1 X4.458 Y-0.000 Z3.447 F100
G1 X8.900 Y0.000 Z3.000 F100
G1 X4.303 Y0.000 Z3.292 F100
G1 X4.303 Y0.000 Z3.292 F100
G1 X8.900 Y0.000 Z3.000 F100
G1 X4.125 Y0.000 Z3.167 F100
G1 X4.125 Y0.000 Z3.167 F100
G1 X8.900 Y0.000 Z3.000 F100
G1 X3.928 Y0.000 Z3.075 F100
G1 X3.928 Y0.000 Z3.075 F100
G1 X8.900 Y0.000 Z3.000 F100
G1 X8.900 Y0.000 Z2.000 F100
G1 X3.928 Y0.000 Z3.075 F100
G1 X8.900 Y0.000 Z2.000 F100
G1 X3.717 Y0.000 Z3.019 F100
G1 X3.717 Y0.000 Z3.019 F100
G1 X8.900 Y0.000 Z2.000 F100
G1 X3.500 Y-0.000 Z3.000 F100
G1 X3.500 Y-0.000 Z3.000 F100
G1 X8.900 Y0.000 Z2.000 F100
G1 X-8.900 Y0.000 Z2.000 F100
G1 X3.500 Y-0.000 Z3.000 F100
G1 X-8.900 Y0.000 Z2.000 F100
G1 X-3.500 Y0.000 Z3.000 F100
G1 X-3.500 Y0.000 Z3.000 F100
G1 X-8.900 Y0.000 Z2.000 F100
G1 X-3.717 Y-0.000 Z3.019 F100
G1 X-3.717 Y-0.000 Z3.019 F100
G1 X-8.900 Y0.000 Z2.000 F100
G1 X-3.928 Y-0.000 Z3.075 F100
G1 X-3.928 Y-0.000 Z3.075 F100
G1 X-8.900 Y0.000 Z2.000 F100
G1 X-8.900 Y0.000 Z3.000 F100
G1 X-3.928 Y-0.000 Z3.075 F100
G1 X-8.900 Y0.000 Z3.000 F100
G1 X-4.125 Y-0.000 Z3.167 F100
G1 X-4.125 Y-0.000 Z3.167 F100
G1 X-8.900 Y0.000 Z3.000 F100
G1 X-4.303 Y-0.000 Z3.292 F100
G1 X-15.000 Y0.000 Z-2.750 F100
G1 X-15.000 Y-3.000 Z-2.750 F100
G1 X-15.735 Y-0.000 Z-2.714 F100
G1 X-15.735 Y-0.000 Z-2.714 F100
G1 X-15.000 Y-3.000 Z-2.750 F100
G1 X-15.735 Y-3.000 Z-2.714 F100
G1 X-15.735 Y-0.000 Z-2.714 F100
G1 X-15.735 Y-3.000 Z-2.714 F100
G1 X-16.463 Y-0.000 Z-2.606 F100
G1 X-16.463 Y-0.000 Z-2.606 F100
G1 X-15.735 Y-3.000 Z-2.714 F100
G1 X-16.463 Y-3.000 Z-2.606 F100
G1 X-16.463 Y-0.000 Z-2.606 F100
G1 X-16.463 Y-3.000 Z-2.606 F100
G1 X-17.177 Y-0.000 Z-2.427 F100
G1 X-17.177 Y-0.000 Z-2.427 F100
G1 X-16.463 Y-3.000 Z-2.606 F100
G1 X-17.177 Y-3.000 Z-2.427 F100
G1 X-17.177 Y-0.000 Z-2.427 F100
G1 X-17.177 Y-3.000 Z-2.427 F100
G1 X-17.870 Y-0.000 Z-2.179 F100
G1 X-17.870 Y-0.000 Z-2.179 F100
G1 X-17.177 Y-3.000 Z-2.427 F100
G1 X-17.870 Y-3.000 Z-2.179 F100
G1 X-17.870 Y-0.000 Z-2.179 F100
G1 X-17.870 Y-3.000 Z-2.179 F100
G1 X-18.535 Y-0.000 Z-1.864 F100
G1 X-18.535 Y-0.000 Z-1.864 F100
G1 X-17.870 Y-3.000 Z-2.179 F100
G1 X-18.535 Y-3.000 Z-1.864 F100
G1 X-18.535 Y-0.000 Z-1.864 F100
G1 X-18.535 Y-3.000 Z-1.864 F100
G1 X-19.167 Y-0.000 Z-1.486 F100
G1 X-19.167 Y-0.000 Z-1.486 F100
G1 X-18.535 Y-3.000 Z-1.864 F100
G1 X-19.167 Y-3.000 Z-1.486 F100
G1 X-19.167 Y-0.000 Z-1.486 F100
G1 X-19.167 Y-3.000 Z-1.486 F100
G1 X-19.758 Y-0.000 Z-1.048 F100
G1 X-19.758 Y-0.000 Z-1.048 F100
G1 X-19.167 Y-3.000 Z-1.486 F100
G1 X-19.758 Y-3.000 Z-1.048 F100
G1 X-19.758 Y-0.000 Z-1.048 F100
G1 X-19.758 Y-3.000 Z-1.048 F100
G1 X-20.303 Y-0.000 Z-0.553 F100
G1 X-20.303 Y-0.000 Z-0.553 F100
G1 X-19.758 Y-3.000 Z-1.048 F100
G1 X-20.303 Y-3.000 Z-0.553 F100
G1 X-20.303 Y-0.000 Z-0.553 F100
G1 X-20.303 Y-3.000 Z-0.553 F100
G1 X-20.798 Y-0.000 Z-0.008 F100
G1 X-20.798 Y-0.000 Z-0.008 F100
G1 X-20.303 Y-3.000 Z-0.553 F100
G1 X-20.798 Y-3.000 Z-0.008 F100
G1 X-20.798 Y-0.000 Z-0.008 F100
G1 X-20.798 Y-3.000 Z-0.008 F100
G1 X-21.236 Y-0.000 Z0.583 F100
G1 X-21.236 Y-0.000 Z0.583 F100
G1 X-20.798 Y-3.000 Z-0.008 F100
G1 X-21.236 Y-3.000 Z0.583 F100
G1 X-21.236 Y-0.000 Z0.583 F100
G1 X-21.236 Y-3.000 Z0.583 F100
G1 X-21.614 Y-0.000 Z1.215 F100
G1 X-21.614 Y-0.000 Z1.215 F100
G1 X-21.236 Y-3.000 Z0.583 F100
G1 X-21.614 Y-3.000 Z1.215 F100
G1 X-21.614 Y-0.000 Z1.215 F100
G1 X-21.614 Y-3.000 Z1.215 F100
G1 X-21.929 Y-0.000 Z1.880 F100
G1 X-21.929 Y-0.000 Z1.880 F100
G1 X-21.614 Y-3.000 Z1.215 F100
G1 X-21.929 Y-3.000 Z1.880 F100
G1 X-21.929 Y-0.000 Z1.880 F100
G1 X-21.929 Y-3.000 Z1.880 F100
G1 X-22.177 Y-0.000 Z2.573 F100
G1 X-22.177 Y-0.000 Z2.573 F100
G1 X-21.929 Y-3.000 Z1.880 F100
G1 X-22.177 Y-3.000 Z2.573 F100
G1 X-22.177 Y-0.000 Z2.573 F100
G1 X-22.177 Y-3.000 Z2.573 F100
G1 X-22.356 Y-0.000 Z3.287 F100
G1 X-22.356 Y-0.000 Z3.287 F100
G1 X-22.177 Y-3.000 Z2.573 F100
G1 X-22.356 Y-3.000 Z3.287 F100
G1 X-22.356 Y-0.000 Z3.287 F100
G1 X-22.356 Y-3.000 Z3.287 F100
G1 X-22.464 Y-0.000 Z4.015 F100
G1 X-22.464 Y-0.000 Z4.015 F100
G1 X-22.356 Y-3.000 Z3.287 F100
G1 X-22.464 Y-3.000 Z4.015 F100
G1 X-22.464 Y-0.000 Z4.015 F100
G1 X-22.464 Y-3.000 Z4.015 F100
G1 X-22.500 Y-0.000 Z4.750 F100
G1 X-22.500 Y-0.000 Z4.750 F100
G1 X-22.464 Y-3.000 Z4.015 F100
G1 X-22.500 Y-3.000 Z4.750 F100
G1 X-22.500 Y-0.000 Z4.750 F100
G1 X-22.500 Y-3.000 Z4.750 F100
G1 X-22.464 Y-0.000 Z5.485 F100
G1 X-22.464 Y-0.000 Z5.485 F100
G1 X-22.500 Y-3.000 Z4.750 F100
G1 X-22.464 Y-3.000 Z5.485 F100
G1 X-22.464 Y-0.000 Z5.485 F100
G1 X-22.464 Y-3.000 Z5.485 F100
G1 X-22.356 Y-0.000 Z6.213 F100
G1 X-22.356 Y-0.000 Z6.213 F100
G1 X-22.464 Y-3.000 Z5.485 F100
G1 X-22.356 Y-3.000 Z6.213 F100
G1 X-22.356 Y-0.000 Z6.213 F100
G1 X-22.356 Y-3.000 Z6.213 F100
G1 X-22.177 Y-0.000 Z6.927 F100
G1 X-22.177 Y-0.000 Z6.927 F100
G1 X-22.356 Y-3.000 Z6.213 F100
G1 X-22.177 Y-3.000 Z6.927 F100
G1 X-22.177 Y-0.000 Z6.927 F100
G1 X-22.177 Y-3.000 Z6.927 F100
G1 X-21.929 Y-0.000 Z7.620 F100
G1 X-21.929 Y-0.000 Z7.620 F100
G1 X-22.177 Y-3.000 Z6.927 F100
G1 X-21.929 Y-3.000 Z7.620 F100
G1 X-21.929 Y-0.000 Z7.620 F100
G1 X-21.929 Y-3.000 Z7.620 F100
G1 X-21.614 Y-0.000 Z8.285 F100
G1 X-21.614 Y-0.000 Z8.285 F100
G1 X-21.929 Y-3.000 Z7.620 F100
G1 X-21.614 Y-3.000 Z8.285 F100
G1 X-21.614 Y-0.000 Z8.285 F100
G1 X-21.614 Y-3.000 Z8.285 F100
G1 X-21.236 Y-0.000 Z8.917 F100
G1 X-21.236 Y-0.000 Z8.917 F100
G1 X-21.614 Y-3.000 Z8.285 F100
G1 X-21.236 Y-3.000 Z8.917 F100
G1 X-21.236 Y-0.000 Z8.917 F100
G1 X-21.236 Y-3.000 Z8.917 F100
G1 X-20.798 Y-0.000 Z9.508 F100
G1 X-20.798 Y-0.000 Z9.508 F100
G1 X-21.236 Y-3.000 Z8.917 F100
G1 X-20.798 Y-3.000 Z9.508 F100
G1 X-20.798 Y-0.000 Z9.508 F100
G1 X-20.798 Y-3.000 Z9.508 F100
G1 X-20.303 Y-0.000 Z10.053 F100
G1 X-20.303 Y-0.000 Z10.053 F100
G1 X-20.798 Y-3.000 Z9.508 F100
G1 X-20.303 Y-3.000 Z10.053 F100
G1 X-20.303 Y-0.000 Z10.053 F100
G1 X-20.303 Y-3.000 Z10.053 F100
G1 X-19.758 Y-0.000 Z10.548 F100
G1 X-19.758 Y-0.000 Z10.548 F100
G1 X-20.303 Y-3.000 Z10.053 F100
G1 X-19.758 Y-3.000 Z10.548 F100
G1 X-19.758 Y-0.000 Z10.548 F100
G1 X-19.758 Y-3.000 Z10.548 F100
G1 X-19.167 Y-0.000 Z10.986 F100
G1 X-19.167 Y-0.000 Z10.986 F100
G1 X-19.758 Y-3.000 Z10.548 F100
G1 X-19.167 Y-3.000 Z10.986 F100
G1 X-19.167 Y-0.000 Z10.986 F100
G1 X-19.167 Y-3.000 Z10.986 F100
G1 X-18.535 Y-0.000 Z11.364 F100
G1 X-18.535 Y-0.000 Z11.364 F100
G1 X-19.167 Y-3.000 Z10.986 F100
G1 X-18.535 Y-3.000 Z11.364 F100
G1 X-18.535 Y-0.000 Z11.364 F100
G1 X-18.535 Y-3.000 Z11.364 F100
G1 X-17.870 Y-0.000 Z11.679 F100
G1 X-17.870 Y-0.000 Z11.679 F100
G1 X-18.535 Y-3.000 Z11.364 F100
G1 X-17.870 Y-3.000 Z11.679 F100
G1 X-17.870 Y-0.000 Z11.679 F100
G1 X-17.870 Y-3.000 Z11.679 F100
G1 X-17.177 Y-0.000 Z11.927 F100
G1 X-17.177 Y-0.000 Z11.927 F100
G1 X-17.870 Y-3.000 Z11.679 F100
G1 X-17.177 Y-3.000 Z11.927 F100
G1 X-17.177 Y-0.000 Z11.927 F100
G1 X-17.177 Y-3.000 Z11.927 F100
G1 X-16.463 Y-0.000 Z12.106 F100
G1 X-16.463 Y-0.000 Z12.106 F100
G1 X-17.177 Y-3.000 Z11.927 F100
G1 X-16.463 Y-3.000 Z12.106 F100
G1 X-16.463 Y-0.000 Z12.106 F100
G1 X-16.463 Y-3.000 Z12.106 F100
G1 X-15.735 Y-0.000 Z12.214 F100
G1 X-15.735 Y-0.000 Z12.214 F100
G1 X-16.463 Y-3.000 Z12.106 F100
G1 X-15.735 Y-3.000 Z12.214 F100
G1 X-15.735 Y-0.000 Z12.214 F100
G1 X-15.735 Y-3.000 Z12.214 F100
G1 X-15.000 Y0.000 Z12.250 F100
G1 X-15.000 Y0.000 Z12.250 F100
G1 X-15.735 Y-3.000 Z12.214 F100
G1 X-15.000 Y-3.000 Z12.250 F100
G1 X-8.436 Y-3.000 Z4.585 F100
G1 X-8.450 Y-3.000 Z4.750 F100
G1 X-12.902 Y-3.000 Z4.631 F100
G1 X-12.902 Y-3.000 Z4.631 F100
G1 X-8.450 Y-3.000 Z4.750 F100
G1 X-8.436 Y-3.000 Z4.915 F100
G1 X-12.902 Y-3.000 Z4.631 F100
G1 X-8.436 Y-3.000 Z4.915 F100
G1 X-12.920 Y-3.000 Z5.106 F100
G1 X-12.920 Y-3.000 Z5.106 F100
G1 X-8.436 Y-3.000 Z4.915 F100
G1 X-8.393 Y-3.000 Z5.075 F100
G1 X-12.920 Y-3.000 Z5.106 F100
G1 X-8.393 Y-3.000 Z5.075 F100
G1 X-8.323 Y-3.000 Z5.225 F100
G1 X-12.920 Y-3.000 Z5.106 F100
G1 X-8.323 Y-3.000 Z5.225 F100
G1 X-13.011 Y-3.000 Z5.571 F100
G1 X-13.011 Y-3.000 Z5.571 F100
G1 X-8.323 Y-3.000 Z5.225 F100
G1 X-8.228 Y-3.000 Z5.361 F100
G1 X-13.011 Y-3.000 Z5.571 F100
G1 X-8.228 Y-3.000 Z5.361 F100
G1 X-8.111 Y-3.000 Z5.478 F100
G1 X-13.011 Y-3.000 Z5.571 F100
G1 X-8.111 Y-3.000 Z5.478 F100
G1 X-13.171 Y-3.000 Z6.018 F100
G1 X-13.171 Y-3.000 Z6.018 F100
G1 X-8.111 Y-3.000 Z5.478 F100
G1 X-7.975 Y-3.000 Z5.573 F100
G1 X-13.171 Y-3.000 Z6.018 F100
G1 X-7.975 Y-3.000 Z5.573 F100
G1 X-7.825 Y-3.000 Z5.643 F100
G1 X-13.171 Y-3.000 Z6.018 F100
G1 X-7.825 Y-3.000 Z5.643 F100
G1 X-13.398 Y-3.000 Z6.435 F100
G1 X-13.398 Y-3.000 Z6.435 F100
G1 X-7.825 Y-3.000 Z5.643 F100
G1 X-7.665 Y-3.000 Z5.686 F100
G1 X-13.398 Y-3.000 Z6.435 F100
G1 X-7.665 Y-3.000 Z5.686 F100
G1 X-13.686 Y-3.000 Z6.813 F100
G1 X-13.686 Y-3.000 Z6.813 F100
G1 X-7.665 Y-3.000 Z5.686 F100
G1 X-7.500 Y-3.000 Z5.700 F100
G1 X-13.686 Y-3.000 Z6.813 F100
G1 X-7.500 Y-3.000 Z5.700 F100
G1 X-3.928 Y-3.000 Z6.425 F100
G1 X-3.928 Y-3.000 Z6.425 F100
G1 X-7.500 Y-3.000 Z5.700 F100
G1 X-4.125 Y-3.000 Z6.333 F100
G1 X-4.125 Y-3.000 Z6.333 F100
G1 X-7.500 Y-3.000 Z5.700 F100
G1 X-4.303 Y-3.000 Z6.208 F100
G1 X-4.303 Y-3.000 Z6.208 F100
G1 X-7.500 Y-3.000 Z5.700 F100
G1 X-7.335 Y-3.000 Z5.686 F100
G1 X-4.303 Y-3.000 Z6.208 F100
G1 X-7.335 Y-3.000 Z5.686 F100
G1 X-4.458 Y-3.000 Z6.053 F100
G1 X-4.458 Y-3.000 Z6.053 F100
G1 X-7.335 Y-3.000 Z5.686 F100
G1 X-7.175 Y-3.000 Z5.643 F100
G1 X-4.458 Y-3.000 Z6.053 F100
G1 X-7.175 Y-3.000 Z5.643 F100
G1 X-4.583 Y-3.000 Z5.875 F100
G1 X-4.583 Y-3.000 Z5.875 F100
G1 X-7.175 Y-3.000 Z5.643 F100
G1 X-7.025 Y-3.000 Z5.573 F100
G1 X-4.583 Y-3.000 Z5.875 F100
G1 X-7.025 Y-3.000 Z5.573 F100
G1 X-4.675 Y-3.000 Z5.678 F100
G1 X-4.675 Y-3.000 Z5.678 F100
G1 X-7.025 Y-3.000 Z5.573 F100
G1 X-6.889 Y-3.000 Z5.478 F100
G1 X-4.675 Y-3.000 Z5.678 F100
G1 X-6.889 Y-3.000 Z5.478 F100
G1 X-4.731 Y-3.000 Z5.467 F100
G1 X-4.731 Y-3.000 Z5.467 F100
G1 X-6.889 Y-3.000 Z5.478 F100
G1 X-6.772 Y-3.000 Z5.361 F100
G1 X-4.731 Y-3.000 Z5.467 F100
G1 X-6.772 Y-3.000 Z5.361 F100
G1 X-6.677 Y-3.000 Z5.225 F100
G1 X-4.731 Y-3.000 Z5.467 F100
G1 X-6.677 Y-3.000 Z5.225 F100
G1 X-4.750 Y-3.000 Z5.250 F100
G1 X-4.750 Y-3.000 Z5.250 F100
G1 X-6.677 Y-3.000 Z5.225 F100
G1 X-6.607 Y-3.000 Z5.075 F100
G1 X-4.750 Y-3.000 Z5.250 F100
G1 X-6.607 Y-3.000 Z5.075 F100
G1 X-6.564 Y-3.000 Z4.915 F100
G1 X-6.564 Y-3.000 Z4.915 F100
G1 X-6.550 Y-3.000 Z4.750 F100
G1 X-4.750 Y-3.000 Z5.250 F100
G1 X-4.750 Y-3.000 Z5.250 F100
G1 X-6.550 Y-3.000 Z4.750 F100
G1 X-4.750 Y-3.000 Z4.250 F100
G1 X-4.750 Y-3.000 Z4.250 F100
G1 X-6.550 Y-3.000 Z4.750 F100
G1 X-6.564 Y-3.000 Z4.585 F100
G1 X-4.750 Y-3.000 Z4.250 F100
G1 X-6.564 Y-3.000 Z4.585 F100
G1 X-6.607 Y-3.000 Z4.425 F100
G1 X-6.607 Y-3.000 Z4.425 F100
G1 X-6.677 Y-3.000 Z4.275 F100
G1 X-4.750 Y-3.000 Z4.250 F100
G1 X-4.750 Y-3.000 Z4.250 F100
G1 X-6.677 Y-3.000 Z4.275 F100
G1 X-4.731 Y-3.000 Z4.033 F100
G1 X-4.731 Y-3.000 Z4.033 F100
G1 X-6.677 Y-3.000 Z4.275 F100
G1 X-6.772 Y-3.000 Z4.139 F100
G1 X-4.731 Y-3.000 Z4.033 F100
G1 X-6.772 Y-3.000 Z4.139 F100
G1 X-6.889 Y-3.000 Z4.022 F100
G1 X-4.731 Y-3.000 Z4.033 F100
G1 X-6.889 Y-3.000 Z4.022 F100
G1 X-4.675 Y-3.000 Z3.822 F100
G1 X-4.675 Y-3.000 Z3.822 F100
G1 X-6.889 Y-3.000 Z4.022 F100
G1 X-7.025 Y-3.000 Z3.927 F100
G1 X-4.675 Y-3.000 Z3.822 F100
G1 X-7.025 Y-3.000 Z3.927 F100
G1 X-4.583 Y-3.000 Z3.625 F100
G1 X-4.583 Y-3.000 Z3.625 F100
G1 X-7.025 Y-3.000 Z3.927 F100
G1 X-7.175 Y-3.000 Z3.857 F100
G1 X-4.583 Y-3.000 Z3.625 F100
G1 X-7.175 Y-3.000 Z3.857 F100
G1 X-4.458 Y-3.000 Z3.447 F100
G1 X-4.458 Y-3.000 Z3.447 F100
G1 X-7.175 Y-3.000 Z3.857 F100
G1 X-7.335 Y-3.000 Z3.814 F100
G1 X-4.458 Y-3.000 Z3.447 F100
G1 X-7.335 Y-3.000 Z3.814 F100
G1 X-4.303 Y-3.000 Z3.292 F100
G1 X-4.303 Y-3.000 Z3.292 F100
G1 X-7.335 Y-3.000 Z3.814 F100
G1 X-7.500 Y-3.000 Z3.800 F100
G1 X-4.303 Y-3.000 Z3.292 F100
G1 X-7.500 Y-3.000 Z3.800 F100
G1 X-4.125 Y-3.000 Z3.167 F100
G1 X-4.125 Y-3.000 Z3.167 F100
G1 X-7.500 Y-3.000 Z3.800 F100
G1 X-3.928 Y-3.000 Z3.075 F100
G1 X-3.928 Y-3.000 Z3.075 F100
G1 X-7.500 Y-3.000 Z3.800 F100
G1 X-13.850 Y-3.000 Z2.516 F100
G1 X-3.928 Y-3.000 Z3.075 F100
G1 X-13.850 Y-3.000 Z2.516 F100
G1 X-14.217 Y-3.000 Z2.214 F100
G1 X-7.500 Y-3.000 Z3.800 F100
G1 X-7.665 Y-3.000 Z3.814 F100
G1 X-13.850 Y-3.000 Z2.516 F100
G1 X-13.850 Y-3.000 Z2.516 F100
G1 X-7.665 Y-3.000 Z3.814 F100
G1 X-13.535 Y-3.000 Z2.871 F100
G1 X-13.535 Y-3.000 Z2.871 F100
G1 X-7.665 Y-3.000 Z3.814 F100
G1 X-13.277 Y-3.000 Z3.269 F100
G1 X-13.277 Y-3.000 Z3.269 F100
G1 X-7.665 Y-3.000 Z3.814 F100
G1 X-7.825 Y-3.000 Z3.857 F100
G1 X-13.277 Y-3.000 Z3.269 F100
G1 X-7.825 Y-3.000 Z3.857 F100
G1 X-7.975 Y-3.000 Z3.927 F100
G1 X-13.277 Y-3.000 Z3.269 F100
G1 X-7.975 Y-3.000 Z3.927 F100
G1 X-13.082 Y-3.000 Z3.702 F100
G1 X-13.082 Y-3.000 Z3.702 F100
G1 X-7.975 Y-3.000 Z3.927 F100
G1 X-8.111 Y-3.000 Z4.022 F100
G1 X-13.082 Y-3.000 Z3.702 F100
G1 X-8.111 Y-3.000 Z4.022 F100
G1 X-8.228 Y-3.000 Z4.139 F100
G1 X-13.082 Y-3.000 Z3.702 F100
G1 X-8.228 Y-3.000 Z4.139 F100
G1 X-12.957 Y-3.000 Z4.160 F100
G1 X-12.957 Y-3.000 Z4.160 F100
G1 X-8.228 Y-3.000 Z4.139 F100
G1 X-8.323 Y-3.000 Z4.275 F100
G1 X-12.957 Y-3.000 Z4.160 F100
G1 X-8.323 Y-3.000 Z4.275 F100
G1 X-8.393 Y-3.000 Z4.425 F100
G1 X-12.957 Y-3.000 Z4.160 F100
G1 X-8.393 Y-3.000 Z4.425 F100
G1 X-12.902 Y-3.000 Z4.631 F100
G1 X-12.902 Y-3.000 Z4.631 F100
G1 X-8.393 Y-3.000 Z4.425 F100
G1 X-8.436 Y-3.000 Z4.585 F100
G1 X-16.473 Y-3.000 Z1.686 F100
G1 X-20.798 Y-3.000 Z-0.008 F100
G1 X-16.000 Y-3.000 Z1.650 F100
G1 X-16.000 Y-3.000 Z1.650 F100
G1 X-20.798 Y-3.000 Z-0.008 F100
G1 X-20.303 Y-3.000 Z-0.553 F100
G1 X-16.000 Y-3.000 Z1.650 F100
G1 X-20.303 Y-3.000 Z-0.553 F100
G1 X-19.758 Y-3.000 Z-1.048 F100
G1 X-20.798 Y-3.000 Z-0.008 F100
G1 X-16.473 Y-3.000 Z1.686 F100
G1 X-21.236 Y-3.000 Z0.583 F100
G1 X-21.236 Y-3.000 Z0.583 F100
G1 X-16.473 Y-3.000 Z1.686 F100
G1 X-16.935 Y-3.000 Z1.794 F100
G1 X-21.236 Y-3.000 Z0.583 F100
G1 X-16.935 Y-3.000 Z1.794 F100
G1 X-21.614 Y-3.000 Z1.215 F100
G1 X-21.614 Y-3.000 Z1.215 F100
G1 X-16.935 Y-3.000 Z1.794 F100
G1 X-17.376 Y-3.000 Z1.972 F100
G1 X-21.614 Y-3.000 Z1.215 F100
G1 X-17.376 Y-3.000 Z1.972 F100
G1 X-21.929 Y-3.000 Z1.880 F100
G1 X-21.929 Y-3.000 Z1.880 F100
G1 X-17.376 Y-3.000 Z1.972 F100
G1 X-17.783 Y-3.000 Z2.214 F100
G1 X-21.929 Y-3.000 Z1.880 F100
G1 X-17.783 Y-3.000 Z2.214 F100
G1 X-18.150 Y-3.000 Z2.516 F100
G1 X-21.929 Y-3.000 Z1.880 F100
G1 X-18.150 Y-3.000 Z2.516 F100
G1 X-22.177 Y-3.000 Z2.573 F100
G1 X-22.177 Y-3.000 Z2.573 F100
G1 X-18.150 Y-3.000 Z2.516 F100
G1 X-18.465 Y-3.000 Z2.871 F100
G1 X-22.177 Y-3.000 Z2.573 F100
G1 X-18.465 Y-3.000 Z2.871 F100
G1 X-18.723 Y-3.000 Z3.269 F100
G1 X-22.177 Y-3.000 Z2.573 F100
G1 X-18.723 Y-3.000 Z3.269 F100
G1 X-22.356 Y-3.000 Z3.287 F100
G1 X-22.356 Y-3.000 Z3.287 F100
G1 X-18.723 Y-3.000 Z3.269 F100
G1 X-18.918 Y-3.000 Z3.702 F100
G1 X-22.356 Y-3.000 Z3.287 F100
G1 X-18.918 Y-3.000 Z3.702 F100
G1 X-22.464 Y-3.000 Z4.015 F100
G1 X-22.464 Y-3.000 Z4.015 F100
G1 X-18.918 Y-3.000 Z3.702 F100
G1 X-19.043 Y-3.000 Z4.160 F100
G1 X-22.464 Y-3.000 Z4.015 F100
G1 X-19.043 Y-3.000 Z4.160 F100
G1 X-19.098 Y-3.000 Z4.631 F100
G1 X-22.464 Y-3.000 Z4.015 F100
G1 X-19.098 Y-3.000 Z4.631 F100
G1 X-22.500 Y-3.000 Z4.750 F100
G1 X-22.500 Y-3.000 Z4.750 F100
G1 X-19.098 Y-3.000 Z4.631 F100
G1 X-19.080 Y-3.000 Z5.106 F100
G1 X-22.500 Y-3.000 Z4.750 F100
G1 X-19.080 Y-3.000 Z5.106 F100
G1 X-22.464 Y-3.000 Z5.485 F100
G1 X-22.464 Y-3.000 Z5.485 F100
G1 X-19.080 Y-3.000 Z5.106 F100
G1 X-18.989 Y-3.000 Z5.571 F100
G1 X-22.464 Y-3.000 Z5.485 F100
G1 X-18.989 Y-3.000 Z5.571 F100
G1 X-22.356 Y-3.000 Z6.213 F100
G1 X-22.356 Y-3.000 Z6.213 F100
G1 X-18.989 Y-3.000 Z5.571 F100
G1 X-18.829 Y-3.000 Z6.018 F100
G1 X-22.356 Y-3.000 Z6.213 F100
G1 X-18.829 Y-3.000 Z6.018 F100
G1 X-18.602 Y-3.000 Z6.435 F100
G1 X-22.356 Y-3.000 Z6.213 F100
G1 X-18.602 Y-3.000 Z6.435 F100
G1 X-22.177 Y-3.000 Z6.927 F100
G1 X-22.177 Y-3.000 Z6.927 F100
G1 X-18.602 Y-3.000 Z6.435 F100
G1 X-18.314 Y-3.000 Z6.813 F100
G1 X-22.177 Y-3.000 Z6.927 F100
G1 X-18.314 Y-3.000 Z6.813 F100
G1 X-21.929 Y-3.000 Z7.620 F100
G1 X-21.929 Y-3.000 Z7.620 F100
G1 X-18.314 Y-3.000 Z6.813 F100
G1 X-17.972 Y-3.000 Z7.142 F100
G1 X-21.929 Y-3.000 Z7.620 F100
G1 X-17.972 Y-3.000 Z7.142 F100
G1 X-17.584 Y-3.000 Z7.415 F100
G1 X-21.929 Y-3.000 Z7.620 F100
G1 X-17.584 Y-3.000 Z7.415 F100
G1 X-21.614 Y-3.000 Z8.285 F100
G1 X-21.614 Y-3.000 Z8.285 F100
G1 X-17.584 Y-3.000 Z7.415 F100
G1 X-17.159 Y-3.000 Z7.625 F100
G1 X-21.614 Y-3.000 Z8.285 F100
G1 X-17.159 Y-3.000 Z7.625 F100
G1 X-16.706 Y-3.000 Z7.768 F100
G1 X-21.614 Y-3.000 Z8.285 F100
G1 X-16.706 Y-3.000 Z7.768 F100
G1 X-21.236 Y-3.000 Z8.917 F100
G1 X-21.236 Y-3.000 Z8.917 F100
G1 X-16.706 Y-3.000 Z7.768 F100
G1 X-16.237 Y-3.000 Z7.841 F100
G1 X-21.236 Y-3.000 Z8.917 F100
G1 X-16.237 Y-3.000 Z7.841 F100
G1 X-20.798 Y-3.000 Z9.508 F100
G1 X-20.798 Y-3.000 Z9.508 F100
G1 X-16.237 Y-3.000 Z7.841 F100
G1 X-20.303 Y-3.000 Z10.053 F100
G1 X-20.303 Y-3.000 Z10.053 F100
G1 X-16.237 Y-3.000 Z7.841 F100
G1 X-15.763 Y-3.000 Z7.841 F100
G1 X-20.303 Y-3.000 Z10.053 F100
G1 X-15.763 Y-3.000 Z7.841 F100
G1 X-19.758 Y-3.000 Z10.548 F100
G1 X-19.758 Y-3.000 Z10.548 F100
G1 X-15.763 Y-3.000 Z7.841 F100
G1 X-19.167 Y-3.000 Z10.986 F100
G1 X-19.167 Y-3.000 Z10.986 F100
G1 X-15.763 Y-3.000 Z7.841 F100
G1 X-18.535 Y-3.000 Z11.364 F100
G1 X-18.535 Y-3.000 Z11.364 F100
G1 X-15.763 Y-3.000 Z7.841 F100
G1 X-15.000 Y-3.000 Z12.250 F100
G1 X-18.535 Y-3.000 Z11.364 F100
G1 X-15.000 Y-3.000 Z12.250 F100
G1 X-17.870 Y-3.000 Z11.679 F100
G1 X-17.870 Y-3.000 Z11.679 F100
G1 X-15.000 Y-3.000 Z12.250 F100
G1 X-17.177 Y-3.000 Z11.927 F100
G1 X-17.177 Y-3.000 Z11.927 F100
G1 X-15.000 Y-3.000 Z12.250 F100
G1 X-16.463 Y-3.000 Z12.106 F100
G1 X-16.463 Y-3.000 Z12.106 F100
G1 X-15.000 Y-3.000 Z12.250 F100
G1 X-15.735 Y-3.000 Z12.214 F100
G1 X-15.763 Y-3.000 Z7.841 F100
G1 X-15.294 Y-3.000 Z7.768 F100
G1 X-15.000 Y-3.000 Z12.250 F100
G1 X-15.000 Y-3.000 Z12.250 F100
G1 X-15.294 Y-3.000 Z7.768 F100
G1 X-14.841 Y-3.000 Z7.625 F100
G1 X-15.000 Y-3.000 Z12.250 F100
G1 X-14.841 Y-3.000 Z7.625 F100
G1 X-3.717 Y-3.000 Z6.481 F100
G1 X-3.717 Y-3.000 Z6.481 F100
G1 X-14.841 Y-3.000 Z7.625 F100
G1 X-14.416 Y-3.000 Z7.415 F100
G1 X-3.717 Y-3.000 Z6.481 F100
G1 X-14.416 Y-3.000 Z7.415 F100
G1 X-14.028 Y-3.000 Z7.142 F100
G1 X-3.717 Y-3.000 Z6.481 F100
G1 X-14.028 Y-3.000 Z7.142 F100
G1 X-3.928 Y-3.000 Z6.425 F100
G1 X-3.928 Y-3.000 Z6.425 F100
G1 X-14.028 Y-3.000 Z7.142 F100
G1 X-13.686 Y-3.000 Z6.813 F100
G1 X-3.928 Y-3.000 Z3.075 F100
G1 X-14.217 Y-3.000 Z2.214 F100
G1 X-3.717 Y-3.000 Z3.019 F100
G1 X-3.717 Y-3.000 Z3.019 F100
G1 X-14.217 Y-3.000 Z2.214 F100
G1 X-14.624 Y-3.000 Z1.972 F100
G1 X-3.717 Y-3.000 Z3.019 F100
G1 X-14.624 Y-3.000 Z1.972 F100
G1 X-15.065 Y-3.000 Z1.794 F100
G1 X-3.717 Y-3.000 Z3.019 F100
G1 X-15.065 Y-3.000 Z1.794 F100
G1 X-15.000 Y-3.000 Z-2.750 F100
G1 X-15.000 Y-3.000 Z-2.750 F100
G1 X-15.065 Y-3.000 Z1.794 F100
G1 X-15.527 Y-3.000 Z1.686 F100
G1 X-15.000 Y-3.000 Z-2.750 F100
G1 X-15.527 Y-3.000 Z1.686 F100
G1 X-18.535 Y-3.000 Z-1.864 F100
G1 X-18.535 Y-3.000 Z-1.864 F100
G1 X-15.527 Y-3.000 Z1.686 F100
G1 X-19.167 Y-3.000 Z-1.486 F100
G1 X-19.167 Y-3.000 Z-1.486 F100
G1 X-15.527 Y-3.000 Z1.686 F100
G1 X-19.758 Y-3.000 Z-1.048 F100
G1 X-19.758 Y-3.000 Z-1.048 F100
G1 X-15.527 Y-3.000 Z1.686 F100
G1 X-16.000 Y-3.000 Z1.650 F100
G1 X15.527 Y-3.000 Z1.686 F100
G1 X19.758 Y-3.000 Z-1.048 F100
G1 X16.000 Y-3.000 Z1.650 F100
G1 X16.000 Y-3.000 Z1.650 F100
G1 X19.758 Y-3.000 Z-1.048 F100
G1 X20.303 Y-3.000 Z-0.553 F100
G1 X16.000 Y-3.000 Z1.650 F100
G1 X20.303 Y-3.000 Z-0.553 F100
G1 X20.798 Y-3.000 Z-0.008 F100
G1 X15.065 Y-3.000 Z1.794 F100
G1 X15.000 Y-3.000 Z-2.750 F100
G1 X15.527 Y-3.000 Z1.686 F100
G1 X15.527 Y-3.000 Z1.686 F100
G1 X15.000 Y-3.000 Z-2.750 F100
G1 X18.535 Y-3.000 Z-1.864 F100
G1 X15.527 Y-3.000 Z1.686 F100
G1 X18.535 Y-3.000 Z-1.864 F100
G1 X19.167 Y-3.000 Z-1.486 F100
G1 X15.000 Y-3.000 Z-2.750 F100
G1 X15.065 Y-3.000 Z1.794 F100
G1 X3.717 Y-3.000 Z3.019 F100
G1 X3.717 Y-3.000 Z3.019 F100
G1 X15.065 Y-3.000 Z1.794 F100
G1 X14.624 Y-3.000 Z1.972 F100
G1 X3.717 Y-3.000 Z3.019 F100
G1 X14.624 Y-3.000 Z1.972 F100
G1 X14.217 Y-3.000 Z2.214 F100
G1 X3.717 Y-3.000 Z3.019 F100
G1 X14.217 Y-3.000 Z2.214 F100
G1 X3.928 Y-3.000 Z3.075 F100
G1 X3.928 Y-3.000 Z3.075 F100
G1 X14.217 Y-3.000 Z2.214 F100
G1 X13.850 Y-3.000 Z2.516 F100
G1 X3.928 Y-3.000 Z3.075 F100
G1 X13.850 Y-3.000 Z2.516 F100
G1 X4.125 Y-3.000 Z3.167 F100
G1 X4.125 Y-3.000 Z3.167 F100
G1 X13.850 Y-3.000 Z2.516 F100
G1 X13.535 Y-3.000 Z2.871 F100
G1 X4.125 Y-3.000 Z3.167 F100
G1 X13.535 Y-3.000 Z2.871 F100
G1 X4.303 Y-3.000 Z3.292 F100
G1 X4.303 Y-3.000 Z3.292 F100
G1 X13.535 Y-3.000 Z2.871 F100
G1 X13.277 Y-3.000 Z3.269 F100
G1 X4.303 Y-3.000 Z3.292 F100
G1 X13.277 Y-3.000 Z3.269 F100
G1 X4.458 Y-3.000 Z3.447 F100
G1 X4.458 Y-3.000 Z3.447 F100
G1 X13.277 Y-3.000 Z3.269 F100
G1 X4.583 Y-3.000 Z3.625 F100
G1 X4.583 Y-3.000 Z3.625 F100
G1 X13.277 Y-3.000 Z3.269 F100
G1 X13.082 Y-3.000 Z3.702 F100
G1 X4.583 Y-3.000 Z3.625 F100
G1 X13.082 Y-3.000 Z3.702 F100
G1 X4.675 Y-3.000 Z3.822 F100
G1 X4.675 Y-3.000 Z3.822 F100
G1 X13.082 Y-3.000 Z3.702 F100
G1 X4.731 Y-3.000 Z4.033 F100
G1 X4.731 Y-3.000 Z4.033 F100
G1 X13.082 Y-3.000 Z3.702 F100
G1 X12.957 Y-3.000 Z4.160 F100
G1 X4.731 Y-3.000 Z4.033 F100
G1 X12.957 Y-3.000 Z4.160 F100
G1 X4.750 Y-3.000 Z4.250 F100
G1 X4.750 Y-3.000 Z4.250 F100
G1 X12.957 Y-3.000 Z4.160 F100
G1 X12.902 Y-3.000 Z4.631 F100
G1 X4.750 Y-3.000 Z4.250 F100
G1 X12.902 Y-3.000 Z4.631 F100
G1 X4.750 Y-3.000 Z5.250 F100
G1 X4.750 Y-3.000 Z5.250 F100
G1 X12.902 Y-3.000 Z4.631 F100
G1 X12.920 Y-3.000 Z5.106 F100
G1 X4.750 Y-3.000 Z5.250 F100
G1 X12.920 Y-3.000 Z5.106 F100
G1 X4.731 Y-3.000 Z5.467 F100
G1 X4.731 Y-3.000 Z5.467 F100
G1 X12.920 Y-3.000 Z5.106 F100
G1 X13.011 Y-3.000 Z5.571 F100
G1 X4.731 Y-3.000 Z5.467 F100
G1 X13.011 Y-3.000 Z5.571 F100
G1 X4.675 Y-3.000 Z5.678 F100
G1 X4.675 Y-3.000 Z5.678 F100
G1 X13.011 Y-3.000 Z5.571 F100
G1 X13.171 Y-3.000 Z6.018 F100
G1 X4.675 Y-3.000 Z5.678 F100
G1 X13.171 Y-3.000 Z6.018 F100
G1 X4.583 Y-3.000 Z5.875 F100
G1 X4.583 Y-3.000 Z5.875 F100
G1 X13.171 Y-3.000 Z6.018 F100
G1 X4.458 Y-3.000 Z6.053 F100
G1 X4.458 Y-3.000 Z6.053 F100
G1 X13.171 Y-3.000 Z6.018 F100
G1 X13.398 Y-3.000 Z6.435 F100
G1 X4.458 Y-3.000 Z6.053 F100
G1 X13.398 Y-3.000 Z6.435 F100
G1 X4.303 Y-3.000 Z6.208 F100
G1 X4.303 Y-3.000 Z6.208 F100
G1 X13.398 Y-3.000 Z6.435 F100
G1 X4.125 Y-3.000 Z6.333 F100
G1 X4.125 Y-3.000 Z6.333 F100
G1 X13.398 Y-3.000 Z6.435 F100
G1 X13.686 Y-3.000 Z6.813 F100
G1 X4.125 Y-3.000 Z6.333 F100
G1 X13.686 Y-3.000 Z6.813 F100
G1 X3.928 Y-3.000 Z6.425 F100
G1 X3.928 Y-3.000 Z6.425 F100
G1 X13.686 Y-3.000 Z6.813 F100
G1 X14.028 Y-3.000 Z7.142 F100
G1 X3.928 Y-3.000 Z6.425 F100
G1 X14.028 Y-3.000 Z7.142 F100
G1 X3.717 Y-3.000 Z6.481 F100
G1 X3.717 Y-3.000 Z6.481 F100
G1 X14.028 Y-3.000 Z7.142 F100
G1 X14.416 Y-3.000 Z7.415 F100
G1 X3.717 Y-3.000 Z6.481 F100
G1 X14.416 Y-3.000 Z7.415 F100
G1 X14.841 Y-3.000 Z7.625 F100
G1 X3.717 Y-3.000 Z6.481 F100
G1 X14.841 Y-3.000 Z7.625 F100
G1 X15.000 Y-3.000 Z12.250 F100
G1 X15.000 Y-3.000 Z12.250 F100
G1 X14.841 Y-3.000 Z7.625 F100
G1 X15.294 Y-3.000 Z7.768 F100
G1 X15.000 Y-3.000 Z12.250 F100
G1 X15.294 Y-3.000 Z7.768 F100
G1 X15.763 Y-3.000 Z7.841 F100
G1 X16.237 Y-3.000 Z7.841 F100
G1 X20.303 Y-3.000 Z10.053 F100
G1 X15.763 Y-3.000 Z7.841 F100
G1 X15.763 Y-3.000 Z7.841 F100
G1 X20.303 Y-3.000 Z10.053 F100
G1 X19.758 Y-3.000 Z10.548 F100
G1 X15.763 Y-3.000 Z7.841 F100
G1 X19.758 Y-3.000 Z10.548 F100
G1 X19.167 Y-3.000 Z10.986 F100
G1 X16.706 Y-3.000 Z7.768 F100
G1 X21.236 Y-3.000 Z8.917 F100
G1 X16.237 Y-3.000 Z7.841 F100
G1 X16.237 Y-3.000 Z7.841 F100
G1 X21.236 Y-3.000 Z8.917 F100
G1 X20.798 Y-3.000 Z9.508 F100
G1 X16.237 Y-3.000 Z7.841 F100
G1 X20.798 Y-3.000 Z9.508 F100
G1 X20.303 Y-3.000 Z10.053 F100
G1 X21.236 Y-3.000 Z8.917 F100
G1 X16.706 Y-3.000 Z7.768 F100
G1 X21.614 Y-3.000 Z8.285 F100
G1 X21.614 Y-3.000 Z8.285 F100
G1 X16.706 Y-3.000 Z7.768 F100
G1 X17.159 Y-3.000 Z7.625 F100
G1 X21.614 Y-3.000 Z8.285 F100
G1 X17.159 Y-3.000 Z7.625 F100
G1 X17.584 Y-3.000 Z7.415 F100
G1 X21.614 Y-3.000 Z8.285 F100
G1 X17.584 Y-3.000 Z7.415 F100
G1 X21.929 Y-3.000 Z7.620 F100
G1 X21.929 Y-3.000 Z7.620 F100
G1 X17.584 Y-3.000 Z7.415 F100
G1 X17.972 Y-3.000 Z7.142 F100
G1 X21.929 Y-3.000 Z7.620 F100
G1 X17.972 Y-3.000 Z7.142 F100
G1 X18.314 Y-3.000 Z6.813 F100
G1 X21.929 Y-3.000 Z7.620 F100
G1 X18.314 Y-3.000 Z6.813 F100
G1 X22.177 Y-3.000 Z6.927 F100
G1 X22.177 Y-3.000 Z6.927 F100
G1 X18.314 Y-3.000 Z6.813 F100
G1 X18.602 Y-3.000 Z6.435 F100
G1 X22.177 Y-3.000 Z6.927 F100
G1 X18.602 Y-3.000 Z6.435 F100
G1 X22.356 Y-3.000 Z6.213 F100
G1 X22.356 Y-3.000 Z6.213 F100
G1 X18.602 Y-3.000 Z6.435 F100
G1 X18.829 Y-3.000 Z6.018 F100
G1 X22.356 Y-3.000 Z6.213 F100
G1 X18.829 Y-3.000 Z6.018 F100
G1 X18.989 Y-3.000 Z5.571 F100
G1 X22.356 Y-3.000 Z6.213 F100
G1 X18.989 Y-3.000 Z5.571 F100
G1 X22.464 Y-3.000 Z5.485 F100
G1 X22.464 Y-3.000 Z5.485 F100
G1 X18.989 Y-3.000 Z5.571 F100
G1 X19.080 Y-3.000 Z5.106 F100
G1 X22.464 Y-3.000 Z5.485 F100
G1 X19.080 Y-3.000 Z5.106 F100
G1 X22.500 Y-3.000 Z4.750 F100
G1 X22.500 Y-3.000 Z4.750 F100
G1 X19.080 Y-3.000 Z5.106 F100
G1 X19.098 Y-3.000 Z4.631 F100
G1 X22.500 Y-3.000 Z4.750 F100
G1 X19.098 Y-3.000 Z4.631 F100
G1 X22.464 Y-3.000 Z4.015 F100
G1 X22.464 Y-3.000 Z4.015 F100
G1 X19.098 Y-3.000 Z4.631 F100
G1 X19.043 Y-3.000 Z4.160 F100
G1 X22.464 Y-3.000 Z4.015 F100
G1 X19.043 Y-3.000 Z4.160 F100
G1 X18.918 Y-3.000 Z3.702 F100
G1 X22.464 Y-3.000 Z4.015 F100
G1 X18.918 Y-3.000 Z3.702 F100
G1 X22.356 Y-3.000 Z3.287 F100
G1 X22.356 Y-3.000 Z3.287 F100
G1 X18.918 Y-3.000 Z3.702 F100
G1 X18.723 Y-3.000 Z3.269 F100
G1 X22.356 Y-3.000 Z3.287 F100
G1 X18.723 Y-3.000 Z3.269 F100
G1 X22.177 Y-3.000 Z2.573 F100
G1 X22.177 Y-3.000 Z2.573 F100
G1 X18.723 Y-3.000 Z3.269 F100
G1 X18.465 Y-3.000 Z2.871 F100
G1 X22.177 Y-3.000 Z2.573 F100
G1 X18.465 Y-3.000 Z2.871 F100
G1 X18.150 Y-3.000 Z2.516 F100
G1 X22.177 Y-3.000 Z2.573 F100
G1 X18.150 Y-3.000 Z2.516 F100
G1 X21.929 Y-3.000 Z1.880 F100
G1 X21.929 Y-3.000 Z1.880 F100
G1 X18.150 Y-3.000 Z2.516 F100
G1 X17.783 Y-3.000 Z2.214 F100
G1 X21.929 Y-3.000 Z1.880 F100
G1 X17.783 Y-3.000 Z2.214 F100
G1 X17.376 Y-3.000 Z1.972 F100
G1 X21.929 Y-3.000 Z1.880 F100
G1 X17.376 Y-3.000 Z1.972 F100
G1 X21.614 Y-3.000 Z1.215 F100
G1 X21.614 Y-3.000 Z1.215 F100
G1 X17.376 Y-3.000 Z1.972 F100
G1 X16.935 Y-3.000 Z1.794 F100
G1 X21.614 Y-3.000 Z1.215 F100
G1 X16.935 Y-3.000 Z1.794 F100
G1 X21.236 Y-3.000 Z0.583 F100
G1 X21.236 Y-3.000 Z0.583 F100
G1 X16.935 Y-3.000 Z1.794 F100
G1 X16.473 Y-3.000 Z1.686 F100
G1 X21.236 Y-3.000 Z0.583 F100
G1 X16.473 Y-3.000 Z1.686 F100
G1 X20.798 Y-3.000 Z-0.008 F100
G1 X20.798 Y-3.000 Z-0.008 F100
G1 X16.473 Y-3.000 Z1.686 F100
G1 X16.000 Y-3.000 Z1.650 F100
G1 X-18.535 Y-3.000 Z-1.864 F100
G1 X-17.870 Y-3.000 Z-2.179 F100
G1 X-15.000 Y-3.000 Z-2.750 F100
G1 X-15.000 Y-3.000 Z-2.750 F100
G1 X-17.870 Y-3.000 Z-2.179 F100
G1 X-17.177 Y-3.000 Z-2.427 F100
G1 X-15.000 Y-3.000 Z-2.750 F100
G1 X-17.177 Y-3.000 Z-2.427 F100
G1 X-16.463 Y-3.000 Z-2.606 F100
G1 X-16.463 Y-3.000 Z-2.606 F100
G1 X-15.735 Y-3.000 Z-2.714 F100
G1 X-15.000 Y-3.000 Z-2.750 F100
G1 X15.000 Y-3.000 Z-2.750 F100
G1 X3.500 Y-3.000 Z3.000 F100
G1 X-15.000 Y-3.000 Z-2.750 F100
G1 X-15.000 Y-3.000 Z-2.750 F100
G1 X3.500 Y-3.000 Z3.000 F100
G1 X-3.500 Y-3.000 Z3.000 F100
G1 X-15.000 Y-3.000 Z-2.750 F100
G1 X-3.500 Y-3.000 Z3.000 F100
G1 X-3.717 Y-3.000 Z3.019 F100
G1 X15.735 Y-3.000 Z-2.714 F100
G1 X16.463 Y-3.000 Z-2.606 F100
G1 X15.000 Y-3.000 Z-2.750 F100
G1 X15.000 Y-3.000 Z-2.750 F100
G1 X16.463 Y-3.000 Z-2.606 F100
G1 X17.177 Y-3.000 Z-2.427 F100
G1 X15.000 Y-3.000 Z-2.750 F100
G1 X17.177 Y-3.000 Z-2.427 F100
G1 X17.870 Y-3.000 Z-2.179 F100
G1 X17.870 Y-3.000 Z-2.179 F100
G1 X18.535 Y-3.000 Z-1.864 F100
G1 X15.000 Y-3.000 Z-2.750 F100
G1 X19.167 Y-3.000 Z-1.486 F100
G1 X19.758 Y-3.000 Z-1.048 F100
G1 X15.527 Y-3.000 Z1.686 F100
G1 X19.167 Y-3.000 Z10.986 F100
G1 X18.535 Y-3.000 Z11.364 F100
G1 X15.763 Y-3.000 Z7.841 F100
G1 X15.763 Y-3.000 Z7.841 F100
G1 X18.535 Y-3.000 Z11.364 F100
G1 X15.000 Y-3.000 Z12.250 F100
G1 X18.535 Y-3.000 Z11.364 F100
G1 X17.870 Y-3.000 Z11.679 F100
G1 X15.000 Y-3.000 Z12.250 F100
G1 X15.000 Y-3.000 Z12.250 F100
G1 X17.870 Y-3.000 Z11.679 F100
G1 X17.177 Y-3.000 Z11.927 F100
G1 X15.000 Y-3.000 Z12.250 F100
G1 X17.177 Y-3.000 Z11.927 F100
G1 X16.463 Y-3.000 Z12.106 F100
G1 X16.463 Y-3.000 Z12.106 F100
G1 X15.735 Y-3.000 Z12.214 F100
G1 X15.000 Y-3.000 Z12.250 F100
G1 X3.717 Y-3.000 Z6.481 F100
G1 X15.000 Y-3.000 Z12.250 F100
G1 X3.500 Y-3.000 Z6.500 F100
G1 X3.500 Y-3.000 Z6.500 F100
G1 X15.000 Y-3.000 Z12.250 F100
G1 X-15.000 Y-3.000 Z12.250 F100
G1 X3.500 Y-3.000 Z6.500 F100
G1 X-15.000 Y-3.000 Z12.250 F100
G1 X-3.500 Y-3.000 Z6.500 F100
G1 X-3.500 Y-3.000 Z6.500 F100
G1 X-15.000 Y-3.000 Z12.250 F100
G1 X-3.717 Y-3.000 Z6.481 F100
G1 X3.717 Y-3.000 Z3.019 F100
G1 X3.500 Y-3.000 Z3.000 F100
G1 X15.000 Y-3.000 Z-2.750 F100
G1 X15.000 Y0.000 Z12.250 F100
G1 X15.000 Y-3.000 Z12.250 F100
G1 X15.735 Y-0.000 Z12.214 F100
G1 X15.735 Y-0.000 Z12.214 F100
G1 X15.000 Y-3.000 Z12.250 F100
G1 X15.735 Y-3.000 Z12.214 F100
G1 X15.735 Y-0.000 Z12.214 F100
G1 X15.735 Y-3.000 Z12.214 F100
G1 X16.463 Y-0.000 Z12.106 F100
G1 X16.463 Y-0.000 Z12.106 F100
G1 X15.735 Y-3.000 Z12.214 F100
G1 X16.463 Y-3.000 Z12.106 F100
G1 X16.463 Y-0.000 Z12.106 F100
G1 X16.463 Y-3.000 Z12.106 F100
G1 X17.177 Y-0.000 Z11.927 F100
G1 X17.177 Y-0.000 Z11.927 F100
G1 X16.463 Y-3.000 Z12.106 F100
G1 X17.177 Y-3.000 Z11.927 F100
G1 X17.177 Y-0.000 Z11.927 F100
G1 X17.177 Y-3.000 Z11.927 F100
G1 X17.870 Y-0.000 Z11.679 F100
G1 X17.870 Y-0.000 Z11.679 F100
G1 X17.177 Y-3.000 Z11.927 F100
G1 X17.870 Y-3.000 Z11.679 F100
G1 X17.870 Y-0.000 Z11.679 F100
G1 X17.870 Y-3.000 Z11.679 F100
G1 X18.535 Y-0.000 Z11.364 F100
G1 X18.535 Y-0.000 Z11.364 F100
G1 X17.870 Y-3.000 Z11.679 F100
G1 X18.535 Y-3.000 Z11.364 F100
G1 X18.535 Y-0.000 Z11.364 F100
G1 X18.535 Y-3.000 Z11.364 F100
G1 X19.167 Y-0.000 Z10.986 F100
G1 X19.167 Y-0.000 Z10.986 F100
G1 X18.535 Y-3.000 Z11.364 F100
G1 X19.167 Y-3.000 Z10.986 F100
G1 X19.167 Y-0.000 Z10.986 F100
G1 X19.167 Y-3.000 Z10.986 F100
G1 X19.758 Y-0.000 Z10.548 F100
G1 X19.758 Y-0.000 Z10.548 F100
G1 X19.167 Y-3.000 Z10.986 F100
G1 X19.758 Y-3.000 Z10.548 F100
G1 X19.758 Y-0.000 Z10.548 F100
G1 X19.758 Y-3.000 Z10.548 F100
G1 X20.303 Y-0.000 Z10.053 F100
G1 X20.303 Y-0.000 Z10.053 F100
G1 X19.758 Y-3.000 Z10.548 F100
G1 X20.303 Y-3.000 Z10.053 F100
G1 X20.303 Y-0.000 Z10.053 F100
G1 X20.303 Y-3.000 Z10.053 F100
G1 X20.798 Y-0.000 Z9.508 F100
G1 X20.798 Y-0.000 Z9.508 F100
G1 X20.303 Y-3.000 Z10.053 F100
G1 X20.798 Y-3.000 Z9.508 F100
G1 X20.798 Y-0.000 Z9.508 F100
G1 X20.798 Y-3.000 Z9.508 F100
G1 X21.236 Y-0.000 Z8.917 F100
G1 X21.236 Y-0.000 Z8.917 F100
G1 X20.798 Y-3.000 Z9.508 F100
G1 X21.236 Y-3.000 Z8.917 F100
G1 X21.236 Y-0.000 Z8.917 F100
G1 X21.236 Y-3.000 Z8.917 F100
G1 X21.614 Y-0.000 Z8.285 F100
G1 X21.614 Y-0.000 Z8.285 F100
G1 X21.236 Y-3.000 Z8.917 F100
G1 X21.614 Y-3.000 Z8.285 F100
G1 X21.614 Y-0.000 Z8.285 F100
G1 X21.614 Y-3.000 Z8.285 F100
G1 X21.929 Y-0.000 Z7.620 F100
G1 X21.929 Y-0.000 Z7.620 F100
G1 X21.614 Y-3.000 Z8.285 F100
G1 X21.929 Y-3.000 Z7.620 F100
G1 X21.929 Y-0.000 Z7.620 F100
G1 X21.929 Y-3.000 Z7.620 F100
G1 X22.177 Y-0.000 Z6.927 F100
G1 X22.177 Y-0.000 Z6.927 F100
G1 X21.929 Y-3.000 Z7.620 F100
G1 X22.177 Y-3.000 Z6.927 F100
G1 X22.177 Y-0.000 Z6.927 F100
G1 X22.177 Y-3.000 Z6.927 F100
G1 X22.356 Y-0.000 Z6.213 F100
G1 X22.356 Y-0.000 Z6.213 F100
G1 X22.177 Y-3.000 Z6.927 F100
G1 X22.356 Y-3.000 Z6.213 F100
G1 X22.356 Y-0.000 Z6.213 F100
G1 X22.356 Y-3.000 Z6.213 F100
G1 X22.464 Y-0.000 Z5.485 F100
G1 X22.464 Y-0.000 Z5.485 F100
G1 X22.356 Y-3.000 Z6.213 F100
G1 X22.464 Y-3.000 Z5.485 F100
G1 X22.464 Y-0.000 Z5.485 F100
G1 X22.464 Y-3.000 Z5.485 F100
G1 X22.500 Y-0.000 Z4.750 F100
G1 X22.500 Y-0.000 Z4.750 F100
G1 X22.464 Y-3.000 Z5.485 F100
G1 X22.500 Y-3.000 Z4.750 F100
G1 X22.500 Y-0.000 Z4.750 F100
G1 X22.500 Y-3.000 Z4.750 F100
G1 X22.464 Y-0.000 Z4.015 F100
G1 X22.464 Y-0.000 Z4.015 F100
G1 X22.500 Y-3.000 Z4.750 F100
G1 X22.464 Y-3.000 Z4.015 F100
G1 X22.464 Y-0.000 Z4.015 F100
G1 X22.464 Y-3.000 Z4.015 F100
G1 X22.356 Y-0.000 Z3.287 F100
G1 X22.356 Y-0.000 Z3.287 F100
G1 X22.464 Y-3.000 Z4.015 F100
G1 X22.356 Y-3.000 Z3.287 F100
G1 X22.356 Y-0.000 Z3.287 F100
G1 X22.356 Y-3.000 Z3.287 F100
G1 X22.177 Y-0.000 Z2.573 F100
G1 X22.177 Y-0.000 Z2.573 F100
G1 X22.356 Y-3.000 Z3.287 F100
G1 X22.177 Y-3.000 Z2.573 F100
G1 X22.177 Y-0.000 Z2.573 F100
G1 X22.177 Y-3.000 Z2.573 F100
G1 X21.929 Y-0.000 Z1.880 F100
G1 X21.929 Y-0.000 Z1.880 F100
G1 X22.177 Y-3.000 Z2.573 F100
G1 X21.929 Y-3.000 Z1.880 F100
G1 X21.929 Y-0.000 Z1.880 F100
G1 X21.929 Y-3.000 Z1.880 F100
G1 X21.614 Y-0.000 Z1.215 F100
G1 X21.614 Y-0.000 Z1.215 F100
G1 X21.929 Y-3.000 Z1.880 F100
G1 X21.614 Y-3.000 Z1.215 F100
G1 X21.614 Y-0.000 Z1.215 F100
G1 X21.614 Y-3.000 Z1.215 F100
G1 X21.236 Y-0.000 Z0.583 F100
G1 X21.236 Y-0.000 Z0.583 F100
G1 X21.614 Y-3.000 Z1.215 F100
G1 X21.236 Y-3.000 Z0.583 F100
G1 X21.236 Y-0.000 Z0.583 F100
G1 X21.236 Y-3.000 Z0.583 F100
G1 X20.798 Y-0.000 Z-0.008 F100
G1 X20.798 Y-0.000 Z-0.008 F100
G1 X21.236 Y-3.000 Z0.583 F100
G1 X20.798 Y-3.000 Z-0.008 F100
G1 X20.798 Y-0.000 Z-0.008 F100
G1 X20.798 Y-3.000 Z-0.008 F100
G1 X20.303 Y-0.000 Z-0.553 F100
G1 X20.303 Y-0.000 Z-0.553 F100
G1 X20.798 Y-3.000 Z-0.008 F100
G1 X20.303 Y-3.000 Z-0.553 F100
G1 X20.303 Y-0.000 Z-0.553 F100
G1 X20.303 Y-3.000 Z-0.553 F100
G1 X19.758 Y-0.000 Z-1.048 F100
G1 X19.758 Y-0.000 Z-1.048 F100
G1 X20.303 Y-3.000 Z-0.553 F100
G1 X19.758 Y-3.000 Z-1.048 F100
G1 X19.758 Y-0.000 Z-1.048 F100
G1 X19.758 Y-3.000 Z-1.048 F100
G1 X19.167 Y-0.000 Z-1.486 F100
G1 X19.167 Y-0.000 Z-1.486 F100
G1 X19.758 Y-3.000 Z-1.048 F100
G1 X19.167 Y-3.000 Z-1.486 F100
G1 X19.167 Y-0.000 Z-1.486 F100
G1 X19.167 Y-3.000 Z-1.486 F100
G1 X18.535 Y-0.000 Z-1.864 F100
G1 X18.535 Y-0.000 Z-1.864 F100
G1 X19.167 Y-3.000 Z-1.486 F100
G1 X18.535 Y-3.000 Z-1.864 F100
G1 X18.535 Y-0.000 Z-1.864 F100
G1 X18.535 Y-3.000 Z-1.864 F100
G1 X17.870 Y-0.000 Z-2.179 F100
G1 X17.870 Y-0.000 Z-2.179 F100
G1 X18.535 Y-3.000 Z-1.864 F100
G1 X17.870 Y-3.000 Z-2.179 F100
G1 X17.870 Y-0.000 Z-2.179 F100
G1 X17.870 Y-3.000 Z-2.179 F100
G1 X17.177 Y-0.000 Z-2.427 F100
G1 X17.177 Y-0.000 Z-2.427 F100
G1 X17.870 Y-3.000 Z-2.179 F100
G1 X17.177 Y-3.000 Z-2.427 F100
G1 X17.177 Y-0.000 Z-2.427 F100
G1 X17.177 Y-3.000 Z-2.427 F100
G1 X16.463 Y-0.000 Z-2.606 F100
G1 X16.463 Y-0.000 Z-2.606 F100
G1 X17.177 Y-3.000 Z-2.427 F100
G1 X16.463 Y-3.000 Z-2.606 F100
G1 X16.463 Y-0.000 Z-2.606 F100
G1 X16.463 Y-3.000 Z-2.606 F100
G1 X15.735 Y-0.000 Z-2.714 F100
G1 X15.735 Y-0.000 Z-2.714 F100
G1 X16.463 Y-3.000 Z-2.606 F100
G1 X15.735 Y-3.000 Z-2.714 F100
G1 X15.735 Y-0.000 Z-2.714 F100
G1 X15.735 Y-3.000 Z-2.714 F100
G1 X15.000 Y0.000 Z-2.750 F100
G1 X15.000 Y0.000 Z-2.750 F100
G1 X15.735 Y-3.000 Z-2.714 F100
G1 X15.000 Y-3.000 Z-2.750 F100
G1 X-15.000 Y0.000 Z-2.750 F100
G1 X15.000 Y0.000 Z-2.750 F100
G1 X-15.000 Y-3.000 Z-2.750 F100
G1 X-15.000 Y-3.000 Z-2.750 F100
G1 X15.000 Y0.000 Z-2.750 F100
G1 X15.000 Y-3.000 Z-2.750 F100
G1 X-15.000 Y-3.000 Z12.250 F100
G1 X15.000 Y-3.000 Z12.250 F100
G1 X-15.000 Y0.000 Z12.250 F100
G1 X-15.000 Y0.000 Z12.250 F100
G1 X15.000 Y-3.000 Z12.250 F100
G1 X15.000 Y0.000 Z12.250 F100
G1 X-8.900 Y0.000 Z3.000 F100
G1 X-8.900 Y28.400 Z3.000 F100
G1 X-9.900 Y0.000 Z3.000 F100
G1 X-9.900 Y0.000 Z3.000 F100
G1 X-8.900 Y28.400 Z3.000 F100
G1 X-9.900 Y29.400 Z3.000 F100
G1 X-9.900 Y29.400 Z3.000 F100
G1 X-8.900 Y28.400 Z3.000 F100
G1 X8.900 Y28.400 Z3.000 F100
G1 X-9.900 Y29.400 Z3.000 F100
G1 X8.900 Y28.400 Z3.000 F100
G1 X9.900 Y29.400 Z3.000 F100
G1 X9.900 Y29.400 Z3.000 F100
G1 X8.900 Y28.400 Z3.000 F100
G1 X9.900 Y0.000 Z3.000 F100
G1 X9.900 Y0.000 Z3.000 F100
G1 X8.900 Y28.400 Z3.000 F100
G1 X8.900 Y0.000 Z3.000 F100
G1 X8.900 Y28.400 Z2.000 F100
G1 X8.900 Y0.000 Z2.000 F100
G1 X8.900 Y28.400 Z3.000 F100
G1 X8.900 Y28.400 Z3.000 F100
G1 X8.900 Y0.000 Z2.000 F100
G1 X8.900 Y0.000 Z3.000 F100
G1 X-8.900 Y28.400 Z2.000 F100
G1 X8.900 Y28.400 Z2.000 F100
G1 X-8.900 Y28.400 Z3.000 F100
G1 X-8.900 Y28.400 Z3.000 F100
G1 X8.900 Y28.400 Z2.000 F100
G1 X8.900 Y28.400 Z3.000 F100
G1 X-8.900 Y0.000 Z2.000 F100
G1 X-8.900 Y28.400 Z2.000 F100
G1 X-8.900 Y0.000 Z3.000 F100
G1 X-8.900 Y0.000 Z3.000 F100
G1 X-8.900 Y28.400 Z2.000 F100
G1 X-8.900 Y28.400 Z3.000 F100
G1 X-9.900 Y0.000 Z3.000 F100
G1 X-9.900 Y29.400 Z3.000 F100
G1 X-9.900 Y0.000 Z0.000 F100
G1 X-9.900 Y0.000 Z0.000 F100
G1 X-9.900 Y29.400 Z3.000 F100
G1 X-9.900 Y29.400 Z0.000 F100
G1 X9.900 Y29.400 Z0.000 F100
G1 X-9.900 Y29.400 Z0.000 F100
G1 X9.900 Y29.400 Z3.000 F100
G1 X9.900 Y29.400 Z3.000 F100
G1 X-9.900 Y29.400 Z0.000 F100
G1 X-9.900 Y29.400 Z3.000 F100
G1 X9.900 Y0.000 Z0.000 F100
G1 X9.900 Y29.400 Z0.000 F100
G1 X9.900 Y0.000 Z3.000 F100
G1 X9.900 Y0.000 Z3.000 F100
G1 X9.900 Y29.400 Z0.000 F100
G1 X9.900 Y29.400 Z3.000 F100
G1 X3.500 Y-0.000 Z3.000 F100
G1 X-3.500 Y0.000 Z3.000 F100
G1 X3.500 Y-3.000 Z3.000 F100
G1 X3.500 Y-3.000 Z3.000 F100
G1 X-3.500 Y0.000 Z3.000 F100
G1 X-3.500 Y-3.000 Z3.000 F100
G1 X6.411 Y24.770 Z2.000 F100
G1 X6.411 Y24.770 Z0.000 F100
G1 X6.400 Y24.900 Z2.000 F100
G1 X6.400 Y24.900 Z2.000 F100
G1 X6.411 Y24.770 Z0.000 F100
